;FLAVOR:Marlin
;TIME:17876
;Filament used: 18.0461m
;Layer height: 0.28
;MINX:30.189
;MINY:52.7
;MINZ:0.28
;MAXX:251.814
;MAXY:247.3
;MAXZ:3.36
;Generated with Cura_SteamEngine 4.6.2
M140 S50
M105
M190 S50
M104 S200
M105
M109 S200
M82 ;absolute extrusion mode
M201 X500.00 Y500.00 Z100.00 E5000.00 ;Setup machine max acceleration
M203 X500.00 Y500.00 Z10.00 E50.00 ;Setup machine max feedrate
M204 P500.00 R1000.00 T500.00 ;Setup Print/Retract/Travel acceleration
M205 X8.00 Y8.00 Z0.40 E5.00 ;Setup Jerk
M220 S100 ;Reset Feedrate
M221 S100 ;Reset Flowrate

G28 ;Home

G92 E0 ;Reset Extruder
G1 Z2.0 F3000 ;Move Z Axis up
G1 X10.1 Y20 Z0.28 F5000.0 ;Move to start position
G1 X10.1 Y200.0 Z0.28 F1500.0 E15 ;Draw the first line
G1 X10.4 Y200.0 Z0.28 F5000.0 ;Move to side a little
G1 X10.4 Y20 Z0.28 F1500.0 E30 ;Draw the second line
G92 E0 ;Reset Extruder
G1 Z2.0 F3000 ;Move Z Axis up

G92 E0
G92 E0
G1 F2700 E-5
;LAYER_COUNT:12
;LAYER:0
M107
G0 F6000 X41.052 Y210.042 Z0.28
;TYPE:SKIRT
G1 F2700 E0
G1 F1200 X40.15 Y209.989 E0.04207
G1 X39.257 Y209.857 E0.08411
G1 X38.379 Y209.646 E0.12615
G1 X37.523 Y209.358 E0.16821
G1 X36.696 Y208.996 E0.21025
G1 X35.904 Y208.561 E0.25232
G1 X35.153 Y208.059 E0.29438
G1 X34.45 Y207.492 E0.33644
G1 X33.8 Y206.865 E0.37849
G1 X33.208 Y206.183 E0.42054
G1 X32.678 Y205.452 E0.46259
G1 X32.216 Y204.676 E0.50464
G1 X31.823 Y203.863 E0.54669
G1 X31.505 Y203.018 E0.58873
G1 X31.262 Y202.148 E0.63079
G1 X31.097 Y201.26 E0.67285
G1 X31.002 Y200.119 E0.72616
G1 X30.989 Y199.511 E0.75448
G1 X30.989 Y100.551 E5.36247
G1 X30.999 Y99.729 E5.40075
G1 X31.051 Y98.827 E5.44282
G1 X31.182 Y97.934 E5.48485
G1 X31.392 Y97.055 E5.52693
G1 X31.678 Y96.199 E5.56895
G1 X32.04 Y95.371 E5.61103
G1 X32.473 Y94.579 E5.65306
G1 X32.974 Y93.828 E5.6951
G1 X33.54 Y93.124 E5.73716
G1 X34.166 Y92.473 E5.77922
G1 X34.848 Y91.88 E5.8213
G1 X35.579 Y91.35 E5.86334
G1 X36.353 Y90.886 E5.90536
G1 X37.166 Y90.493 E5.94741
G1 X38.011 Y90.173 E5.98948
G1 X38.881 Y89.929 E6.03156
G1 X39.768 Y89.763 E6.07358
G1 X40.912 Y89.666 E6.12704
G1 X41.519 Y89.653 E6.15531
G1 X85.139 Y89.653 E8.18644
G1 X87.745 Y89.616 E8.3078
G1 X90.31 Y89.507 E8.42734
G1 X92.817 Y89.329 E8.54437
G1 X95.358 Y89.078 E8.66327
G1 X97.866 Y88.757 E8.781
G1 X100.371 Y88.363 E8.89908
G1 X102.858 Y87.901 E9.01687
G1 X105.379 Y87.358 E9.13695
G1 X107.804 Y86.763 E9.25321
G1 X110.27 Y86.086 E9.37229
G1 X112.697 Y85.343 E9.49048
G1 X115.099 Y84.532 E9.60853
G1 X117.512 Y83.642 E9.72829
G1 X119.819 Y82.716 E9.84404
G1 X122.19 Y81.684 E9.96445
G1 X124.469 Y80.616 E10.08164
G1 X126.776 Y79.455 E10.2019
G1 X128.985 Y78.261 E10.31883
G1 X131.164 Y77.004 E10.43596
G1 X133.348 Y75.661 E10.55535
G1 X135.458 Y74.279 E10.6728
G1 X137.565 Y72.812 E10.79235
G1 X139.591 Y71.315 E10.90965
G1 X141.588 Y69.75 E11.02779
G1 X143.566 Y68.107 E11.14752
G1 X145.459 Y66.442 E11.26491
G1 X147.32 Y64.712 E11.38323
G1 X149.113 Y62.946 E11.50041
G1 X150.876 Y61.107 E11.61904
G1 X152.588 Y59.217 E11.73778
G1 X154.38 Y57.124 E11.86608
G1 X154.647 Y56.824 E11.88478
G1 X155.286 Y56.185 E11.92686
G1 X155.978 Y55.605 E11.96891
G1 X156.719 Y55.089 E12.01095
G1 X157.503 Y54.641 E12.053
G1 X158.324 Y54.263 E12.09508
G1 X159.174 Y53.96 E12.1371
G1 X160.048 Y53.733 E12.17915
G1 X160.939 Y53.584 E12.22122
G1 X161.887 Y53.513 E12.26548
G1 X162.494 Y53.5 E12.29375
G1 X223.757 Y53.5 E15.14641
G1 X223.902 Y53.501 E15.15317
G1 X224.603 Y53.511 E15.18581
G1 X225.505 Y53.564 E15.22789
G1 X226.398 Y53.696 E15.26992
G1 X227.277 Y53.907 E15.31201
G1 X228.133 Y54.195 E15.35407
G1 X228.96 Y54.557 E15.3961
G1 X229.752 Y54.991 E15.43815
G1 X230.502 Y55.494 E15.4802
G1 X231.205 Y56.061 E15.52226
G1 X231.855 Y56.687 E15.56428
G1 X232.448 Y57.369 E15.60636
G1 X232.977 Y58.101 E15.64842
G1 X233.44 Y58.876 E15.69045
G1 X233.832 Y59.69 E15.73252
G1 X234.151 Y60.535 E15.77458
G1 X234.402 Y61.44 E15.81831
G1 X234.485 Y61.802 E15.83561
G1 X235.098 Y64.292 E15.95501
G1 X235.783 Y66.775 E16.07495
G1 X236.529 Y69.2 E16.19309
G1 X237.337 Y71.585 E16.31035
G1 X238.23 Y73.999 E16.4302
G1 X239.163 Y76.315 E16.54646
G1 X240.193 Y78.677 E16.66645
G1 X241.263 Y80.953 E16.78356
G1 X242.416 Y83.235 E16.90261
G1 X243.603 Y85.431 E17.01885
G1 X244.902 Y87.677 E17.13966
G1 X246.202 Y89.786 E17.25502
G1 X247.622 Y91.949 E17.37551
G1 X249.155 Y94.146 E17.50025
G1 X249.638 Y94.909 E17.5423
G1 X250.052 Y95.711 E17.58433
G1 X250.394 Y96.547 E17.62638
G1 X250.66 Y97.41 E17.66843
G1 X250.849 Y98.293 E17.71048
G1 X250.966 Y99.279 E17.75672
G1 X250.99 Y99.626 E17.77291
G1 X251.014 Y100.33 E17.80571
G1 X251.014 Y199.288 E22.41361
G1 X251.013 Y199.433 E22.42036
G1 X251.003 Y200.136 E22.4531
G1 X250.95 Y201.038 E22.49518
G1 X250.818 Y201.931 E22.53721
G1 X250.607 Y202.809 E22.57926
G1 X250.319 Y203.665 E22.62131
G1 X249.957 Y204.492 E22.66335
G1 X249.523 Y205.284 E22.7054
G1 X249.193 Y205.793 E22.73365
G1 X248.367 Y206.98 E22.80098
G1 X246.932 Y209.098 E22.92011
G1 X245.557 Y211.256 E23.03926
G1 X244.283 Y213.389 E23.15495
G1 X243.008 Y215.665 E23.27643
G1 X241.846 Y217.885 E23.3931
G1 X240.742 Y220.149 E23.51039
G1 X239.683 Y222.483 E23.62973
G1 X238.693 Y224.839 E23.74873
G1 X237.772 Y227.226 E23.86787
G1 X236.942 Y229.568 E23.98357
G1 X236.157 Y231.999 E24.10252
G1 X235.444 Y234.44 E24.22093
G1 X234.803 Y236.889 E24.33881
G1 X234.647 Y237.56 E24.37089
G1 X234.362 Y238.72 E24.42651
G1 X234.108 Y239.586 E24.46853
G1 X233.779 Y240.427 E24.51058
G1 X233.376 Y241.235 E24.55263
G1 X232.903 Y242.005 E24.5947
G1 X232.364 Y242.729 E24.63673
G1 X231.763 Y243.404 E24.67882
G1 X231.105 Y244.022 E24.72085
G1 X230.395 Y244.58 E24.7629
G1 X229.638 Y245.072 E24.80494
G1 X228.84 Y245.496 E24.84702
G1 X228.008 Y245.848 E24.88908
G1 X227.149 Y246.124 E24.9311
G1 X226.268 Y246.324 E24.97316
G1 X225.373 Y246.445 E25.01522
G1 X224.899 Y246.476 E25.03734
G1 X224.576 Y246.49 E25.05239
G1 X224.134 Y246.5 E25.07298
G1 X162.871 Y246.5 E27.92564
G1 X162.726 Y246.499 E27.93239
G1 X162.024 Y246.489 E27.96508
G1 X161.122 Y246.436 E28.00716
G1 X160.229 Y246.304 E28.04919
G1 X159.351 Y246.093 E28.09124
G1 X158.495 Y245.805 E28.13329
G1 X157.667 Y245.443 E28.17537
G1 X156.875 Y245.009 E28.21742
G1 X156.125 Y244.506 E28.25947
G1 X155.422 Y243.94 E28.3015
G1 X154.772 Y243.313 E28.34355
G1 X154.422 Y242.925 E28.36788
G1 X153.73 Y242.116 E28.41745
G1 X153.179 Y241.453 E28.4576
G1 X151.483 Y239.529 E28.57702
G1 X149.752 Y237.672 E28.69524
G1 X148.001 Y235.897 E28.81133
G1 X146.144 Y234.119 E28.93105
G1 X144.267 Y232.422 E29.04887
G1 X142.301 Y230.741 E29.16932
G1 X140.358 Y229.174 E29.28555
G1 X138.352 Y227.648 E29.40292
G1 X136.269 Y226.154 E29.52228
G1 X134.153 Y224.725 E29.64117
G1 X132.012 Y223.366 E29.75925
G1 X129.85 Y222.077 E29.87646
G1 X127.627 Y220.836 E29.99501
G1 X125.355 Y219.651 E30.11433
G1 X123.095 Y218.552 E30.23135
G1 X120.769 Y217.502 E30.35018
G1 X118.432 Y216.524 E30.46814
G1 X116.037 Y215.6 E30.58768
G1 X113.669 Y214.766 E30.70458
G1 X111.23 Y213.982 E30.82387
G1 X108.814 Y213.279 E30.94104
G1 X106.324 Y212.632 E31.06083
G1 X103.883 Y212.069 E31.17748
G1 X101.374 Y211.565 E31.29664
G1 X98.869 Y211.137 E31.41498
G1 X96.366 Y210.781 E31.5327
G1 X93.834 Y210.493 E31.65136
G1 X91.327 Y210.28 E31.76852
G1 X88.766 Y210.135 E31.88796
G1 X86.207 Y210.062 E32.00717
G1 X84.892 Y210.053 E32.0684
G1 X41.75 Y210.052 E34.07727
G1 X41.052 Y210.042 E34.10978
G0 F6000 X41.046 Y210.442
G1 F1200 X40.127 Y210.389 E34.15264
G1 X39.216 Y210.256 E34.19551
G1 X38.32 Y210.045 E34.23837
G1 X37.446 Y209.757 E34.28122
G1 X36.599 Y209.394 E34.32413
G1 X35.788 Y208.959 E34.36698
G1 X35.018 Y208.455 E34.40984
G1 X34.294 Y207.886 E34.45271
G1 X33.622 Y207.256 E34.49561
G1 X33.007 Y206.571 E34.53847
G1 X32.454 Y205.835 E34.58134
G1 X31.967 Y205.054 E34.6242
G1 X31.55 Y204.233 E34.66707
G1 X31.205 Y203.379 E34.70996
G1 X30.936 Y202.499 E34.75281
G1 X30.744 Y201.598 E34.79571
G1 X30.631 Y200.685 E34.83854
G1 X30.602 Y200.13 E34.86442
G1 X30.589 Y199.511 E34.89325
G1 X30.589 Y100.551 E39.50124
G1 X30.599 Y99.724 E39.53976
G1 X30.651 Y98.804 E39.58266
G1 X30.782 Y97.893 E39.62552
G1 X30.993 Y96.997 E39.66838
G1 X31.28 Y96.122 E39.71126
G1 X31.642 Y95.276 E39.75411
G1 X32.076 Y94.464 E39.79698
G1 X32.578 Y93.692 E39.83986
G1 X33.146 Y92.968 E39.88271
G1 X33.775 Y92.295 E39.9256
G1 X34.46 Y91.68 E39.96847
G1 X35.195 Y91.126 E40.01133
G1 X35.976 Y90.638 E40.05421
G1 X36.796 Y90.219 E40.09709
G1 X37.649 Y89.874 E40.13993
G1 X38.529 Y89.603 E40.18281
G1 X39.429 Y89.411 E40.22566
G1 X40.343 Y89.297 E40.26855
G1 X40.901 Y89.266 E40.29457
G1 X41.519 Y89.253 E40.32335
G1 X85.133 Y89.253 E42.3542
G1 X87.758 Y89.216 E42.47645
G1 X90.266 Y89.109 E42.59334
G1 X92.786 Y88.931 E42.71097
G1 X95.301 Y88.682 E42.82865
G1 X97.79 Y88.363 E42.9455
G1 X100.342 Y87.962 E43.06579
G1 X102.773 Y87.51 E43.18093
G1 X105.272 Y86.972 E43.29996
G1 X107.708 Y86.375 E43.41674
G1 X110.174 Y85.697 E43.53583
G1 X112.567 Y84.964 E43.65237
G1 X114.981 Y84.15 E43.77099
G1 X117.331 Y83.283 E43.88763
G1 X119.719 Y82.324 E44.00746
G1 X121.996 Y81.333 E44.12309
G1 X124.313 Y80.247 E44.24224
G1 X126.571 Y79.111 E44.35994
G1 X128.773 Y77.921 E44.47649
G1 X130.96 Y76.66 E44.59404
G1 X133.14 Y75.318 E44.71324
G1 X135.239 Y73.944 E44.83006
G1 X137.338 Y72.482 E44.94917
G1 X139.352 Y70.994 E45.06577
G1 X141.353 Y69.426 E45.18414
G1 X143.272 Y67.832 E45.30031
G1 X145.188 Y66.148 E45.41909
G1 X147.049 Y64.417 E45.53743
G1 X148.844 Y62.648 E45.65478
G1 X150.591 Y60.827 E45.77229
G1 X152.272 Y58.972 E45.88885
G1 X154.076 Y56.864 E46.01805
G1 X154.352 Y56.554 E46.03738
G1 X155.003 Y55.902 E46.08028
G1 X155.707 Y55.309 E46.12314
G1 X156.46 Y54.78 E46.16599
G1 X157.257 Y54.318 E46.20889
G1 X158.09 Y53.927 E46.25173
G1 X158.954 Y53.61 E46.29459
G1 X159.843 Y53.368 E46.33749
G1 X160.749 Y53.205 E46.38035
G1 X161.876 Y53.113 E46.43301
G1 X162.494 Y53.1 E46.46179
G1 X223.757 Y53.1 E49.31445
G1 X223.908 Y53.101 E49.32148
G1 X224.609 Y53.111 E49.35413
G1 X225.528 Y53.164 E49.39699
G1 X226.439 Y53.297 E49.43986
G1 X227.335 Y53.508 E49.48272
G1 X228.21 Y53.796 E49.52562
G1 X229.056 Y54.159 E49.56848
G1 X229.867 Y54.594 E49.61134
G1 X230.638 Y55.098 E49.65423
G1 X231.362 Y55.667 E49.69711
G1 X232.034 Y56.296 E49.73997
G1 X232.649 Y56.981 E49.78283
G1 X233.202 Y57.717 E49.8257
G1 X233.689 Y58.499 E49.8686
G1 X234.106 Y59.319 E49.91143
G1 X234.451 Y60.173 E49.95432
G1 X234.792 Y61.351 E50.01142
G1 X234.865 Y61.673 E50.0268
G1 X235.497 Y64.238 E50.14981
G1 X236.164 Y66.657 E50.26665
G1 X236.904 Y69.06 E50.38373
G1 X237.715 Y71.454 E50.50143
G1 X238.601 Y73.847 E50.62025
G1 X239.542 Y76.184 E50.73756
G1 X240.544 Y78.483 E50.85434
G1 X241.624 Y80.781 E50.97257
G1 X242.775 Y83.058 E51.09137
G1 X243.963 Y85.256 E51.20771
G1 X245.24 Y87.462 E51.3264
G1 X246.569 Y89.617 E51.4443
G1 X247.94 Y91.707 E51.56068
G1 X249.483 Y93.917 E51.68619
G1 X249.976 Y94.694 E51.72904
G1 X250.401 Y95.511 E51.77192
G1 X250.752 Y96.362 E51.81479
G1 X251.029 Y97.24 E51.85766
G1 X251.228 Y98.139 E51.90053
G1 X251.365 Y99.252 E51.95275
G1 X251.389 Y99.599 E51.96894
G1 X251.414 Y100.33 E52.003
G1 X251.414 Y199.288 E56.6109
G1 X251.413 Y199.439 E56.61793
G1 X251.403 Y200.142 E56.65067
G1 X251.35 Y201.061 E56.69354
G1 X251.217 Y201.972 E56.7364
G1 X251.006 Y202.868 E56.77927
G1 X250.718 Y203.742 E56.82212
G1 X250.355 Y204.589 E56.86503
G1 X249.92 Y205.4 E56.90788
G1 X249.522 Y206.02 E56.94219
G1 X248.69 Y207.216 E57.01003
G1 X247.257 Y209.332 E57.12902
G1 X245.92 Y211.43 E57.24487
G1 X244.611 Y213.621 E57.36371
G1 X243.377 Y215.824 E57.48129
G1 X242.196 Y218.081 E57.5999
G1 X241.094 Y220.34 E57.71694
G1 X240.058 Y222.624 E57.83372
G1 X239.067 Y224.983 E57.95286
G1 X238.151 Y227.355 E58.07126
G1 X237.313 Y229.719 E58.18805
G1 X236.545 Y232.097 E58.30442
G1 X235.838 Y234.516 E58.42177
G1 X235.192 Y236.984 E58.54056
G1 X235.036 Y237.655 E58.57264
G1 X234.751 Y238.815 E58.62826
G1 X234.493 Y239.699 E58.67114
G1 X234.159 Y240.557 E58.71401
G1 X233.751 Y241.382 E58.75687
G1 X233.274 Y242.17 E58.79976
G1 X232.73 Y242.913 E58.84264
G1 X232.124 Y243.605 E58.88547
G1 X231.46 Y244.243 E58.92835
G1 X230.743 Y244.821 E58.97123
G1 X229.979 Y245.334 E59.01408
G1 X229.173 Y245.779 E59.05695
G1 X228.331 Y246.153 E59.09985
G1 X227.461 Y246.452 E59.14269
G1 X226.567 Y246.674 E59.18558
G1 X225.658 Y246.818 E59.22844
G1 X224.916 Y246.876 E59.26309
G1 X224.593 Y246.89 E59.27815
G1 X224.134 Y246.9 E59.29952
G1 X162.871 Y246.9 E62.15219
G1 X162.72 Y246.899 E62.15922
G1 X162.018 Y246.889 E62.19191
G1 X161.099 Y246.836 E62.23477
G1 X160.188 Y246.703 E62.27764
G1 X159.292 Y246.492 E62.32051
G1 X158.417 Y246.204 E62.3634
G1 X157.571 Y245.841 E62.40627
G1 X156.76 Y245.406 E62.44912
G1 X155.989 Y244.902 E62.49201
G1 X155.265 Y244.334 E62.53486
G1 X154.593 Y243.704 E62.57775
G1 X154.118 Y243.186 E62.61048
G1 X153.423 Y242.372 E62.66032
G1 X152.873 Y241.71 E62.70039
G1 X151.207 Y239.82 E62.81771
G1 X149.457 Y237.943 E62.9372
G1 X147.722 Y236.185 E63.05222
G1 X145.845 Y234.388 E63.17321
G1 X144.023 Y232.74 E63.28761
G1 X142.056 Y231.058 E63.40812
G1 X140.11 Y229.489 E63.52452
G1 X138.099 Y227.959 E63.64218
G1 X136.019 Y226.466 E63.7614
G1 X133.962 Y225.077 E63.87698
G1 X131.815 Y223.714 E63.9954
G1 X129.629 Y222.412 E64.11387
G1 X127.453 Y221.197 E64.22992
G1 X125.174 Y220.008 E64.34961
G1 X122.934 Y218.918 E64.46561
G1 X120.599 Y217.864 E64.5849
G1 X118.269 Y216.89 E64.7025
G1 X115.897 Y215.974 E64.8209
G1 X113.519 Y215.137 E64.93828
G1 X111.143 Y214.373 E65.0545
G1 X108.706 Y213.665 E65.17267
G1 X106.238 Y213.023 E65.29141
G1 X103.786 Y212.458 E65.40858
G1 X101.299 Y211.958 E65.5267
G1 X98.811 Y211.533 E65.64423
G1 X96.301 Y211.175 E65.76229
G1 X93.826 Y210.895 E65.87827
G1 X91.271 Y210.677 E65.99768
G1 X88.766 Y210.535 E66.11451
G1 X86.194 Y210.462 E66.23432
G1 X84.889 Y210.453 E66.29509
G1 X41.744 Y210.452 E68.3041
G1 X41.046 Y210.442 E68.3366
G0 F6000 X41.04 Y210.842
G1 F1200 X40.104 Y210.788 E68.38026
G1 X39.176 Y210.656 E68.42391
G1 X38.262 Y210.444 E68.4676
G1 X37.37 Y210.155 E68.51126
G1 X36.505 Y209.792 E68.55494
G1 X35.675 Y209.356 E68.59859
G1 X34.884 Y208.851 E68.64229
G1 X34.14 Y208.28 E68.68596
G1 X33.447 Y207.648 E68.72964
G1 X32.81 Y206.96 E68.7733
G1 X32.235 Y206.219 E68.81697
G1 X31.724 Y205.433 E68.86062
G1 X31.282 Y204.605 E68.90433
G1 X30.913 Y203.743 E68.94799
G1 X30.618 Y202.853 E68.99165
G1 X30.4 Y201.941 E69.03531
G1 X30.26 Y201.013 E69.07901
G1 X30.202 Y200.141 E69.11971
G1 X30.189 Y199.511 E69.14905
G1 X30.189 Y100.551 E73.75704
G1 X30.199 Y99.718 E73.79583
G1 X30.251 Y98.782 E73.83948
G1 X30.383 Y97.853 E73.88317
G1 X30.593 Y96.939 E73.92684
G1 X30.881 Y96.047 E73.97049
G1 X31.243 Y95.182 E74.01415
G1 X31.678 Y94.351 E74.05783
G1 X32.182 Y93.56 E74.1015
G1 X32.752 Y92.815 E74.14518
G1 X33.383 Y92.121 E74.18886
G1 X34.071 Y91.483 E74.23255
G1 X34.81 Y90.907 E74.27618
G1 X35.596 Y90.395 E74.31986
G1 X36.423 Y89.952 E74.36354
G1 X37.285 Y89.582 E74.40722
G1 X38.175 Y89.286 E74.4509
G1 X39.087 Y89.067 E74.49457
G1 X40.014 Y88.926 E74.53823
G1 X40.89 Y88.866 E74.57912
G1 X41.519 Y88.853 E74.60841
G1 X85.127 Y88.853 E76.63898
G1 X87.735 Y88.816 E76.76043
G1 X90.256 Y88.709 E76.87793
G1 X92.751 Y88.532 E76.9944
G1 X95.251 Y88.284 E77.11138
G1 X97.744 Y87.965 E77.22841
G1 X100.237 Y87.574 E77.34591
G1 X102.727 Y87.111 E77.46385
G1 X105.19 Y86.581 E77.58116
G1 X107.586 Y85.993 E77.69604
G1 X110.056 Y85.314 E77.81532
G1 X112.459 Y84.578 E77.93234
G1 X114.851 Y83.771 E78.04989
G1 X117.191 Y82.908 E78.16603
G1 X119.547 Y81.962 E78.28424
G1 X121.845 Y80.962 E78.40094
G1 X124.142 Y79.886 E78.51905
G1 X126.366 Y78.767 E78.63498
G1 X128.605 Y77.556 E78.75351
G1 X130.772 Y76.307 E78.86998
G1 X132.917 Y74.987 E78.98725
G1 X135.014 Y73.614 E79.10397
G1 X137.077 Y72.177 E79.22104
G1 X139.113 Y70.672 E79.33893
G1 X141.096 Y69.119 E79.45621
G1 X143.036 Y67.508 E79.57363
G1 X144.915 Y65.855 E79.69017
G1 X146.761 Y64.138 E79.80756
G1 X148.557 Y62.369 E79.92494
G1 X150.289 Y60.564 E80.04143
G1 X152.005 Y58.67 E80.16043
G1 X153.773 Y56.604 E80.28705
G1 X154.057 Y56.284 E80.30697
G1 X154.719 Y55.62 E80.35063
