;FLAVOR:Marlin
;TIME:12473
;Filament used: 12.5503m
;Layer height: 0.28
;MINX:64
;MINY:64
;MINZ:0.28
;MAXX:236
;MAXY:236
;MAXZ:3.92
;Generated with Cura_SteamEngine 4.6.2
M140 S50
M105
M190 S50
M104 S200
M105
M109 S200
M82 ;absolute extrusion mode
M201 X500.00 Y500.00 Z100.00 E5000.00 ;Setup machine max acceleration
M203 X500.00 Y500.00 Z10.00 E50.00 ;Setup machine max feedrate
M204 P500.00 R1000.00 T500.00 ;Setup Print/Retract/Travel acceleration
M205 X8.00 Y8.00 Z0.40 E5.00 ;Setup Jerk
M220 S100 ;Reset Feedrate
M221 S100 ;Reset Flowrate

G28 ;Home

G92 E0 ;Reset Extruder
G1 Z2.0 F3000 ;Move Z Axis up
G1 X10.1 Y20 Z0.28 F5000.0 ;Move to start position
G1 X10.1 Y200.0 Z0.28 F1500.0 E15 ;Draw the first line
G1 X10.4 Y200.0 Z0.28 F5000.0 ;Move to side a little
G1 X10.4 Y20 Z0.28 F1500.0 E30 ;Draw the second line
G92 E0 ;Reset Extruder
G1 Z2.0 F3000 ;Move Z Axis up

G92 E0
G92 E0
G1 F2700 E-5
;LAYER_COUNT:14
;LAYER:0
M107
G0 F6000 X225.137 Y64.811 Z0.28
;TYPE:SKIRT
G1 F2700 E0
G1 F1200 X226.039 Y64.864 E0.04207
G1 X226.932 Y64.996 E0.08411
G1 X227.81 Y65.207 E0.12615
G1 X228.666 Y65.495 E0.16821
G1 X229.493 Y65.857 E0.21025
G1 X230.285 Y66.292 E0.25232
G1 X231.036 Y66.794 E0.29438
G1 X231.739 Y67.361 E0.33644
G1 X232.389 Y67.988 E0.37849
G1 X232.981 Y68.67 E0.42054
G1 X233.511 Y69.401 E0.46259
G1 X233.973 Y70.177 E0.50464
G1 X234.366 Y70.99 E0.54669
G1 X234.684 Y71.835 E0.58873
G1 X234.927 Y72.705 E0.63079
G1 X235.092 Y73.593 E0.67285
G1 X235.187 Y74.723 E0.72565
G1 X235.2 Y75.33 E0.75392
G1 X235.2 Y224.264 E7.68891
G1 X235.19 Y225.117 E7.72863
G1 X235.139 Y226.019 E7.7707
G1 X235.008 Y226.913 E7.81277
G1 X234.799 Y227.791 E7.8548
G1 X234.513 Y228.648 E7.89687
G1 X234.152 Y229.476 E7.93893
G1 X233.72 Y230.268 E7.98094
G1 X233.219 Y231.02 E8.02301
G1 X232.653 Y231.724 E8.06508
G1 X232.028 Y232.375 E8.1071
G1 X231.347 Y232.969 E8.14918
G1 X230.616 Y233.5 E8.19125
G1 X229.842 Y233.964 E8.23327
G1 X229.029 Y234.358 E8.27534
G1 X228.185 Y234.678 E8.31737
G1 X227.315 Y234.923 E8.35945
G1 X226.428 Y235.089 E8.40147
G1 X225.277 Y235.187 E8.45526
G1 X224.67 Y235.2 E8.48353
G1 X75.707 Y235.2 E15.41987
G1 X74.877 Y235.19 E15.45852
G1 X73.976 Y235.139 E15.50055
G1 X73.082 Y235.007 E15.54263
G1 X72.204 Y234.798 E15.58465
G1 X71.347 Y234.511 E15.62673
G1 X70.52 Y234.15 E15.66875
G1 X69.727 Y233.717 E15.71082
G1 X68.976 Y233.216 E15.75286
G1 X68.272 Y232.65 E15.79492
G1 X67.621 Y232.024 E15.83698
G1 X67.028 Y231.343 E15.87902
G1 X66.498 Y230.612 E15.92107
G1 X66.034 Y229.837 E15.96313
G1 X65.64 Y229.024 E16.0052
G1 X65.32 Y228.18 E16.04723
G1 X65.076 Y227.31 E16.0893
G1 X64.91 Y226.422 E16.13137
G1 X64.813 Y225.267 E16.18534
G1 X64.8 Y224.658 E16.2137
G1 X64.8 Y75.674 E23.15102
G1 X64.81 Y74.871 E23.18841
G1 X64.862 Y73.969 E23.23048
G1 X64.994 Y73.076 E23.27252
G1 X65.204 Y72.198 E23.31455
G1 X65.491 Y71.341 E23.35664
G1 X65.853 Y70.514 E23.39867
G1 X66.286 Y69.722 E23.44071
G1 X66.788 Y68.971 E23.48277
G1 X67.355 Y68.267 E23.52486
G1 X67.981 Y67.617 E23.56688
G1 X68.662 Y67.024 E23.60893
G1 X69.394 Y66.494 E23.65101
G1 X70.169 Y66.031 E23.69305
G1 X70.982 Y65.638 E23.73509
G1 X71.827 Y65.318 E23.77717
G1 X72.696 Y65.075 E23.81918
G1 X73.584 Y64.909 E23.86125
G1 X74.723 Y64.813 E23.91447
G1 X75.33 Y64.8 E23.94274
G1 X224.293 Y64.8 E30.87909
G1 X224.439 Y64.801 E30.88588
G1 X225.137 Y64.811 E30.91839
G0 F6000 X225.143 Y64.411
G1 F1200 X226.062 Y64.464 E30.96125
G1 X226.973 Y64.597 E31.00412
G1 X227.869 Y64.808 E31.04699
G1 X228.743 Y65.096 E31.08984
G1 X229.59 Y65.459 E31.13274
G1 X230.401 Y65.894 E31.1756
G1 X231.171 Y66.398 E31.21845
G1 X231.895 Y66.967 E31.26133
G1 X232.567 Y67.597 E31.30422
G1 X233.182 Y68.282 E31.34708
G1 X233.735 Y69.018 E31.38995
G1 X234.222 Y69.799 E31.43281
G1 X234.639 Y70.62 E31.47569
G1 X234.984 Y71.474 E31.51858
G1 X235.253 Y72.354 E31.56142
G1 X235.445 Y73.255 E31.60432
G1 X235.558 Y74.168 E31.64716
G1 X235.587 Y74.712 E31.67252
G1 X235.6 Y75.33 E31.70131
G1 X235.6 Y224.264 E38.6363
G1 X235.59 Y225.122 E38.67625
G1 X235.539 Y226.041 E38.71911
G1 X235.408 Y226.953 E38.76201
G1 X235.198 Y227.849 E38.80487
G1 X234.912 Y228.724 E38.84773
G1 X234.551 Y229.571 E38.8906
G1 X234.117 Y230.383 E38.93348
G1 X233.615 Y231.155 E38.97635
G1 X233.047 Y231.88 E39.01924
G1 X232.419 Y232.553 E39.0621
G1 X231.735 Y233.169 E39.10496
G1 X231 Y233.723 E39.14782
G1 X230.22 Y234.212 E39.19069
G1 X229.4 Y234.631 E39.23357
G1 X228.547 Y234.977 E39.27643
G1 X227.667 Y235.248 E39.31931
G1 X226.767 Y235.441 E39.36217
G1 X225.853 Y235.556 E39.40506
G1 X225.288 Y235.587 E39.43141
G1 X224.67 Y235.6 E39.46019
G1 X75.707 Y235.6 E46.39653
G1 X74.872 Y235.59 E46.43542
G1 X73.953 Y235.538 E46.47828
G1 X73.042 Y235.407 E46.52114
G1 X72.146 Y235.197 E46.56399
G1 X71.271 Y234.91 E46.60687
G1 X70.424 Y234.548 E46.64976
G1 X69.612 Y234.114 E46.69263
G1 X68.841 Y233.612 E46.73547
G1 X68.116 Y233.044 E46.77836
G1 X67.443 Y232.415 E46.82125
G1 X66.828 Y231.731 E46.86408
G1 X66.274 Y230.996 E46.90694
G1 X65.786 Y230.215 E46.94982
G1 X65.367 Y229.395 E46.9927
G1 X65.021 Y228.542 E47.03556
G1 X64.751 Y227.662 E47.07842
G1 X64.558 Y226.761 E47.12133
G1 X64.444 Y225.848 E47.16417
G1 X64.413 Y225.277 E47.1908
G1 X64.4 Y224.658 E47.21963
G1 X64.4 Y75.674 E54.15695
G1 X64.41 Y74.866 E54.19458
G1 X64.462 Y73.946 E54.23748
G1 X64.594 Y73.035 E54.28035
G1 X64.805 Y72.139 E54.32321
G1 X65.092 Y71.264 E54.36609
G1 X65.455 Y70.418 E54.40896
G1 X65.889 Y69.606 E54.45183
G1 X66.392 Y68.835 E54.49469
G1 X66.961 Y68.111 E54.53757
G1 X67.589 Y67.439 E54.5804
G1 X68.274 Y66.823 E54.6233
G1 X69.01 Y66.27 E54.66616
G1 X69.791 Y65.782 E54.70904
G1 X70.611 Y65.364 E54.7519
G1 X71.465 Y65.019 E54.79479
G1 X72.345 Y64.749 E54.83765
G1 X73.245 Y64.557 E54.8805
G1 X74.159 Y64.443 E54.92339
G1 X74.712 Y64.413 E54.94918
G1 X75.33 Y64.4 E54.97796
G1 X224.293 Y64.4 E61.9143
G1 X224.445 Y64.401 E61.92138
G1 X225.143 Y64.411 E61.95389
G0 F6000 X225.149 Y64.011
G1 F1200 X226.085 Y64.065 E61.99754
G1 X227.013 Y64.197 E62.04119
G1 X227.927 Y64.409 E62.08488
G1 X228.819 Y64.698 E62.12854
G1 X229.684 Y65.061 E62.17222
G1 X230.514 Y65.497 E62.21588
G1 X231.305 Y66.002 E62.25958
G1 X232.049 Y66.573 E62.30325
G1 X232.742 Y67.205 E62.34692
G1 X233.379 Y67.893 E62.39058
G1 X233.954 Y68.634 E62.43425
G1 X234.465 Y69.42 E62.47791
G1 X234.907 Y70.248 E62.52161
G1 X235.276 Y71.11 E62.56527
G1 X235.571 Y72 E62.60893
G1 X235.789 Y72.912 E62.6526
G1 X235.929 Y73.84 E62.6963
G1 X235.987 Y74.701 E62.73648
G1 X236 Y75.33 E62.76577
G1 X236 Y224.264 E69.70076
G1 X235.99 Y225.127 E69.74095
G1 X235.939 Y226.064 E69.78465
G1 X235.807 Y226.992 E69.82829
G1 X235.598 Y227.906 E69.87195
G1 X235.311 Y228.799 E69.91563
G1 X234.949 Y229.665 E69.95933
G1 X234.515 Y230.496 E70.00299
G1 X234.011 Y231.287 E70.04666
G1 X233.442 Y232.032 E70.09031
G1 X232.811 Y232.727 E70.13402
G1 X232.124 Y233.365 E70.17768
G1 X231.385 Y233.942 E70.22134
G1 X230.599 Y234.454 E70.26502
G1 X229.773 Y234.897 E70.30866
G1 X228.911 Y235.269 E70.35238
G1 X228.022 Y235.565 E70.39601
G1 X227.11 Y235.785 E70.43969
G1 X226.183 Y235.926 E70.48335
G1 X225.299 Y235.987 E70.52461
G1 X224.67 Y236 E70.55391
G1 X75.707 Y236 E77.49025
G1 X74.867 Y235.99 E77.52937
G1 X73.931 Y235.938 E77.57302
G1 X73.002 Y235.806 E77.61671
G1 X72.088 Y235.596 E77.66038
G1 X71.195 Y235.309 E77.70406
G1 X70.33 Y234.946 E77.74774
G1 X69.499 Y234.512 E77.79139
G1 X68.708 Y234.008 E77.83507
G1 X67.963 Y233.438 E77.87875
G1 X67.269 Y232.807 E77.92242
G1 X66.632 Y232.12 E77.96605
G1 X66.055 Y231.38 E78.00974
G1 X65.543 Y230.594 E78.05342
G1 X65.1 Y229.767 E78.09711
G1 X64.729 Y228.906 E78.14076
G1 X64.433 Y228.016 E78.18443
G1 X64.214 Y227.104 E78.22811
G1 X64.073 Y226.177 E78.27177
G1 X64.013 Y225.288 E78.31326
G1 X64 Y224.658 E78.3426
G1 X64 Y75.674 E85.27992
G1 X64.01 Y74.86 E85.31783
G1 X64.063 Y73.924 E85.36148
G1 X64.195 Y72.995 E85.40517
G1 X64.406 Y72.081 E85.44885
G1 X64.694 Y71.189 E85.4925
G1 X65.057 Y70.324 E85.53618
G1 X65.492 Y69.493 E85.57986
G1 X65.996 Y68.703 E85.62349
G1 X66.566 Y67.958 E85.66717
G1 X67.198 Y67.264 E85.71088
G1 X67.886 Y66.627 E85.75454
G1 X68.626 Y66.051 E85.7982
G1 X69.412 Y65.539 E85.84188
G1 X70.239 Y65.097 E85.88554
G1 X71.101 Y64.727 E85.92922
G1 X71.991 Y64.431 E85.9729
G1 X72.903 Y64.213 E86.01656
G1 X73.83 Y64.072 E86.06022
G1 X74.701 Y64.013 E86.10087
G1 X75.33 Y64 E86.13017
G1 X224.293 Y64 E93.06651
G1 X224.451 Y64.001 E93.07387
G1 X225.149 Y64.011 E93.10637
G1 F2700 E88.10637
;MESH:motor_teststand2.stl
G0 F6000 X219.779 Y218.182
G0 X219.604 Y216.727
G0 X218.329 Y217.579
G0 X217.798 Y218.048
G0 X217.395 Y218.632
G0 X217.143 Y219.297
G0 X217.058 Y220
G0 X217.143 Y220.703
G0 X217.346 Y221.241
G0 X218.236 Y222.555
;TYPE:WALL-INNER
G1 F2700 E93.10637
G1 F1200 X218.898 Y222.903 E93.1412
G1 X219.627 Y223.082 E93.17615
G1 X220.373 Y223.082 E93.21089
G1 X221.102 Y222.903 E93.24584
G1 X221.764 Y222.555 E93.28067
G1 X222.324 Y222.059 E93.3155
G1 X222.749 Y221.443 E93.35035
G1 X223.014 Y220.742 E93.38524
G1 X223.104 Y220 E93.42005
G1 X223.014 Y219.258 E93.45485
G1 X222.749 Y218.557 E93.48975
G1 X222.324 Y217.941 E93.52459
G1 X221.764 Y217.445 E93.55943
G1 X221.102 Y217.097 E93.59425
G1 X220.373 Y216.918 E93.62921
G1 X219.627 Y216.918 E93.66394
G1 X218.898 Y217.097 E93.6989
G1 X218.236 Y217.445 E93.73372
G1 X217.676 Y217.941 E93.76856
G1 X217.251 Y218.557 E93.8034
G1 X216.986 Y219.258 E93.8383
G1 X216.896 Y220 E93.8731
G1 X216.986 Y220.742 E93.90791
G1 X217.251 Y221.443 E93.9428
G1 X217.676 Y222.059 E93.97765
G1 X218.236 Y222.555 E94.01249
G0 F6000 X218.465 Y222.223
;TYPE:WALL-OUTER
G1 F1200 X219.041 Y222.526 E94.04279
G1 X219.675 Y222.682 E94.07319
G1 X220.325 Y222.682 E94.10346
G1 X220.959 Y222.526 E94.13386
G1 X221.535 Y222.223 E94.16417
G1 X222.022 Y221.792 E94.19445
G1 X222.392 Y221.256 E94.22478
G1 X222.623 Y220.646 E94.25515
G1 X222.701 Y220 E94.28545
G1 X222.623 Y219.354 E94.31575
G1 X222.392 Y218.744 E94.34612
G1 X222.022 Y218.208 E94.37645
G1 X221.535 Y217.777 E94.40673
G1 X220.959 Y217.474 E94.43704
G1 X220.325 Y217.318 E94.46744
G1 X219.675 Y217.318 E94.4977
G1 X219.041 Y217.474 E94.52811
G1 X218.465 Y217.777 E94.55841
G1 X217.978 Y218.208 E94.58869
G1 X217.608 Y218.744 E94.61902
G1 X217.377 Y219.354 E94.64939
G1 X217.299 Y220 E94.67969
G1 X217.377 Y220.646 E94.70999
G1 X217.608 Y221.256 E94.74036
G1 X217.978 Y221.792 E94.77069
G1 X218.465 Y222.223 E94.80097
G0 F6000 X218.215 Y222.585
G1 F2700 E89.80097
G0 F6000 X217.532 Y222.186
G0 X218.628 Y221.214
G0 X81.372 Y221.214
G0 X82.468 Y222.186
G0 X81.764 Y222.555
;TYPE:WALL-INNER
G1 F2700 E94.80097
G1 F1200 X82.324 Y222.059 E94.83581
G1 X82.749 Y221.443 E94.87066
G1 X83.014 Y220.742 E94.90555
G1 X83.104 Y220 E94.94036
G1 X83.014 Y219.258 E94.97516
G1 X82.749 Y218.557 E95.01006
G1 X82.324 Y217.941 E95.0449
G1 X81.764 Y217.445 E95.07974
G1 X81.102 Y217.097 E95.11456
G1 X80.373 Y216.918 E95.14952
G1 X79.627 Y216.918 E95.18425
G1 X78.898 Y217.097 E95.21921
G1 X78.236 Y217.445 E95.25403
G1 X77.676 Y217.941 E95.28886
G1 X77.251 Y218.557 E95.32371
G1 X76.986 Y219.258 E95.35861
G1 X76.896 Y220 E95.39341
G1 X76.986 Y220.742 E95.42822
G1 X77.251 Y221.443 E95.46311
G1 X77.676 Y222.059 E95.49796
G1 X78.236 Y222.555 E95.53279
G1 X78.898 Y222.903 E95.56762
G1 X79.627 Y223.082 E95.60257
G1 X80.373 Y223.082 E95.63731
G1 X81.102 Y222.903 E95.67226
G1 X81.764 Y222.555 E95.70709
G0 F6000 X81.535 Y222.223
;TYPE:WALL-OUTER
G1 F1200 X82.022 Y221.792 E95.73737
G1 X82.392 Y221.256 E95.7677
G1 X82.623 Y220.646 E95.79807
G1 X82.701 Y220 E95.82837
G1 X82.623 Y219.354 E95.85867
G1 X82.392 Y218.744 E95.88904
G1 X82.022 Y218.208 E95.91937
G1 X81.535 Y217.777 E95.94965
G1 X80.959 Y217.474 E95.97996
G1 X80.325 Y217.318 E96.01036
G1 X79.675 Y217.318 E96.04063
G1 X79.041 Y217.474 E96.07103
G1 X78.465 Y217.777 E96.10133
G1 X77.978 Y218.208 E96.13162
G1 X77.608 Y218.744 E96.16194
G1 X77.377 Y219.354 E96.19232
G1 X77.299 Y220 E96.22261
G1 X77.377 Y220.646 E96.25291
G1 X77.608 Y221.256 E96.28329
G1 X77.978 Y221.792 E96.31361
G1 X78.465 Y222.223 E96.3439
G1 X79.041 Y222.526 E96.3742
G1 X79.675 Y222.682 E96.4046
G1 X80.325 Y222.682 E96.43487
G1 X80.959 Y222.526 E96.46527
G1 X81.535 Y222.223 E96.49558
G0 F6000 X81.785 Y222.585
G1 F2700 E91.49558
G0 F6000 X82.605 Y221.368
G0 X82.857 Y220.703
G0 X82.942 Y220
G0 X82.857 Y219.297
G0 X82.605 Y218.632
G0 X82.378 Y218.302
G0 X81.17 Y216.917
G0 X80.65 Y218.288
G0 X80.221 Y81.818
G0 X80.396 Y83.273
G0 X81.102 Y82.903
;TYPE:WALL-INNER
G1 F2700 E96.49558
G1 F1200 X81.764 Y82.555 E96.5304
G1 X82.324 Y82.059 E96.56524
G1 X82.749 Y81.443 E96.60008
G1 X83.014 Y80.742 E96.63498
G1 X83.104 Y80 E96.66978
G1 X83.014 Y79.258 E96.70459
G1 X82.749 Y78.557 E96.73948
G1 X82.324 Y77.941 E96.77433
G1 X81.764 Y77.445 E96.80917
G1 X81.102 Y77.097 E96.84399
G1 X80.373 Y76.918 E96.87894
G1 X79.627 Y76.918 E96.91368
G1 X78.898 Y77.097 E96.94863
G1 X78.236 Y77.445 E96.98346
G1 X77.676 Y77.941 E97.01829
G1 X77.251 Y78.557 E97.05314
G1 X76.986 Y79.258 E97.08804
G1 X76.896 Y80 E97.12284
G1 X76.986 Y80.742 E97.15764
G1 X77.251 Y81.443 E97.19254
G1 X77.676 Y82.059 E97.22739
G1 X78.236 Y82.555 E97.26222
G1 X78.898 Y82.903 E97.29705
G1 X79.627 Y83.082 E97.332
G1 X80.373 Y83.082 E97.36674
G1 X81.102 Y82.903 E97.40169
G0 F6000 X80.959 Y82.526
;TYPE:WALL-OUTER
G1 F1200 X81.535 Y82.223 E97.432
G1 X82.022 Y81.792 E97.46228
G1 X82.392 Y81.256 E97.49261
G1 X82.623 Y80.646 E97.52298
G1 X82.701 Y80 E97.55328
G1 X82.623 Y79.354 E97.58358
G1 X82.392 Y78.744 E97.61395
G1 X82.022 Y78.208 E97.64428
G1 X81.535 Y77.777 E97.67456
G1 X80.959 Y77.474 E97.70486
G1 X80.325 Y77.318 E97.73527
G1 X79.675 Y77.318 E97.76553
G1 X79.041 Y77.474 E97.79594
G1 X78.465 Y77.777 E97.82624
G1 X77.978 Y78.208 E97.85652
G1 X77.608 Y78.744 E97.88685
G1 X77.377 Y79.354 E97.91722
G1 X77.299 Y80 E97.94752
G1 X77.377 Y80.646 E97.97782
G1 X77.608 Y81.256 E98.00819
G1 X77.978 Y81.792 E98.03852
G1 X78.465 Y82.223 E98.0688
G1 X79.041 Y82.526 E98.09911
G1 X79.675 Y82.682 E98.12951
G1 X80.325 Y82.682 E98.15978
G1 X80.959 Y82.526 E98.19018
G0 F6000 X81.115 Y82.937
G1 F2700 E93.19018
G0 F6000 X82.468 Y82.186
G0 X81.372 Y81.214
G0 X218.628 Y81.214
G0 X217.532 Y82.186
G0 X218.898 Y82.903
;TYPE:WALL-INNER
G1 F2700 E98.19018
G1 F1200 X219.627 Y83.082 E98.22513
G1 X220.373 Y83.082 E98.25987
G1 X221.102 Y82.903 E98.29482
G1 X221.764 Y82.555 E98.32965
G1 X222.324 Y82.059 E98.36448
G1 X222.749 Y81.443 E98.39933
G1 X223.014 Y80.742 E98.43423
G1 X223.104 Y80 E98.46903
G1 X223.014 Y79.258 E98.50384
G1 X222.749 Y78.557 E98.53873
G1 X222.324 Y77.941 E98.57358
G1 X221.764 Y77.445 E98.60841
G1 X221.102 Y77.097 E98.64324
G1 X220.373 Y76.918 E98.67819
G1 X219.627 Y76.918 E98.71293
G1 X218.898 Y77.097 E98.74788
G1 X218.236 Y77.445 E98.78271
G1 X217.676 Y77.941 E98.81754
G1 X217.251 Y78.557 E98.85239
G1 X216.986 Y79.258 E98.88728
G1 X216.896 Y80 E98.92209
G1 X216.986 Y80.742 E98.95689
G1 X217.251 Y81.443 E98.99179
G1 X217.676 Y82.059 E99.02664
G1 X218.236 Y82.555 E99.06147
G1 X218.898 Y82.903 E99.09629
G0 F6000 X219.041 Y82.526
;TYPE:WALL-OUTER
G1 F1200 X219.675 Y82.682 E99.1267
G1 X220.325 Y82.682 E99.15696
G1 X220.959 Y82.526 E99.18737
G1 X221.535 Y82.223 E99.21767
G1 X222.022 Y81.792 E99.24795
G1 X222.392 Y81.256 E99.27828
G1 X222.623 Y80.646 E99.30865
G1 X222.701 Y80 E99.33895
G1 X222.623 Y79.354 E99.36925
G1 X222.392 Y78.744 E99.39962
G1 X222.022 Y78.208 E99.42995
G1 X221.535 Y77.777 E99.46023
G1 X220.959 Y77.474 E99.49054
G1 X220.325 Y77.318 E99.52094
G1 X219.675 Y77.318 E99.55121
G1 X219.041 Y77.474 E99.58161
G1 X218.465 Y77.777 E99.61192
G1 X217.978 Y78.208 E99.6422
G1 X217.608 Y78.744 E99.67253
G1 X217.377 Y79.354 E99.7029
G1 X217.299 Y80 E99.7332
G1 X217.377 Y80.646 E99.7635
G1 X217.608 Y81.256 E99.79387
G1 X217.978 Y81.792 E99.8242
G1 X218.465 Y82.223 E99.85448
G1 X219.041 Y82.526 E99.88478
G0 F6000 X218.885 Y82.937
G1 F2700 E94.88478
G0 F6000 X218.127 Y82.713
G0 X218.96 Y81.507
G0 X214.4 Y86.806
G0 X214.347 Y139.347
G0 X169.152 Y139.405
G0 X160.889 Y149.012
G0 X161.871 Y147.925
G0 X162.29 Y149.157
G0 X162.424 Y149.729
G0 X162.419 Y150.314
