;FLAVOR:Marlin
;TIME:20911
;Filament used: 22.3992m
;Layer height: 0.28
;MINX:38.928
;MINY:52.7
;MINZ:0.28
;MAXX:259.33
;MAXY:247.3
;MAXZ:3.36
;Generated with Cura_SteamEngine 4.6.2
M140 S50
M105
M190 S50
M104 S200
M105
M109 S200
M82 ;absolute extrusion mode
M201 X500.00 Y500.00 Z100.00 E5000.00 ;Setup machine max acceleration
M203 X500.00 Y500.00 Z10.00 E50.00 ;Setup machine max feedrate
M204 P500.00 R1000.00 T500.00 ;Setup Print/Retract/Travel acceleration
M205 X8.00 Y8.00 Z0.40 E5.00 ;Setup Jerk
M220 S100 ;Reset Feedrate
M221 S100 ;Reset Flowrate

G28 ;Home

G92 E0 ;Reset Extruder
G1 Z2.0 F3000 ;Move Z Axis up
G1 X10.1 Y20 Z0.28 F5000.0 ;Move to start position
G1 X10.1 Y200.0 Z0.28 F1500.0 E15 ;Draw the first line
G1 X10.4 Y200.0 Z0.28 F5000.0 ;Move to side a little
G1 X10.4 Y20 Z0.28 F1500.0 E30 ;Draw the second line
G92 E0 ;Reset Extruder
G1 Z2.0 F3000 ;Move Z Axis up

G92 E0
G92 E0
G1 F2700 E-5
;LAYER_COUNT:12
;LAYER:0
M107
G0 F6000 X248.467 Y53.511 Z0.28
;TYPE:SKIRT
G1 F2700 E0
G1 F1200 X249.369 Y53.564 E0.04207
G1 X250.262 Y53.696 E0.08411
G1 X251.14 Y53.907 E0.12615
G1 X251.996 Y54.195 E0.16821
G1 X252.823 Y54.557 E0.21025
G1 X253.615 Y54.992 E0.25232
G1 X254.366 Y55.494 E0.29438
G1 X255.069 Y56.061 E0.33644
G1 X255.719 Y56.688 E0.37849
G1 X256.311 Y57.37 E0.42054
G1 X256.841 Y58.101 E0.46259
G1 X257.303 Y58.877 E0.50464
G1 X257.696 Y59.69 E0.54669
G1 X258.014 Y60.535 E0.58873
G1 X258.257 Y61.405 E0.63079
G1 X258.422 Y62.293 E0.67285
G1 X258.517 Y63.423 E0.72565
G1 X258.53 Y64.03 E0.75392
G1 X258.53 Y235.564 E8.74126
G1 X258.52 Y236.417 E8.78098
G1 X258.469 Y237.319 E8.82305
G1 X258.338 Y238.213 E8.86512
G1 X258.129 Y239.091 E8.90715
G1 X257.843 Y239.948 E8.94922
G1 X257.482 Y240.776 E8.99128
G1 X257.05 Y241.568 E9.03329
G1 X256.549 Y242.32 E9.07536
G1 X255.983 Y243.024 E9.11743
G1 X255.358 Y243.675 E9.15945
G1 X254.677 Y244.269 E9.20153
G1 X253.946 Y244.8 E9.2436
G1 X253.172 Y245.264 E9.28562
G1 X252.359 Y245.658 E9.32769
G1 X251.515 Y245.978 E9.36972
G1 X250.645 Y246.223 E9.4118
G1 X249.758 Y246.389 E9.45382
G1 X248.607 Y246.487 E9.50761
G1 X248 Y246.5 E9.53588
G1 X154.037 Y246.5 E13.91119
G1 X153.892 Y246.499 E13.91794
G1 X153.191 Y246.489 E13.95059
G1 X152.289 Y246.436 E13.99266
G1 X151.396 Y246.304 E14.0347
G1 X150.517 Y246.093 E14.07679
G1 X149.661 Y245.805 E14.11884
G1 X148.834 Y245.443 E14.16088
G1 X148.042 Y245.009 E14.20293
G1 X147.282 Y244.499 E14.24555
G1 X146.362 Y243.82 E14.29879
G1 X144.246 Y242.303 E14.42003
G1 X142.118 Y240.866 E14.53959
G1 X139.995 Y239.518 E14.65669
G1 X137.8 Y238.211 E14.77565
G1 X135.578 Y236.97 E14.89416
G1 X133.323 Y235.794 E15.01258
G1 X131.074 Y234.701 E15.12902
G1 X128.733 Y233.645 E15.2486
G1 X126.384 Y232.662 E15.36717
G1 X124.012 Y231.747 E15.48555
G1 X121.636 Y230.911 E15.60284
G1 X119.193 Y230.126 E15.72232
G1 X116.777 Y229.423 E15.83949
G1 X114.299 Y228.779 E15.95871
G1 X111.838 Y228.213 E16.07629
G1 X109.337 Y227.71 E16.19508
G1 X106.814 Y227.279 E16.31427
G1 X104.351 Y226.929 E16.43011
G1 X101.797 Y226.639 E16.5498
G1 X99.284 Y226.425 E16.66724
G1 X96.781 Y226.284 E16.78397
G1 X92.814 Y226.2 E16.96873
G1 X50.489 Y226.199 E18.93956
G1 X49.791 Y226.189 E18.97207
G1 X48.889 Y226.136 E19.01414
G1 X47.996 Y226.004 E19.05617
G1 X47.118 Y225.793 E19.09822
G1 X46.262 Y225.505 E19.14027
G1 X45.435 Y225.143 E19.18231
G1 X44.643 Y224.708 E19.22439
G1 X43.892 Y224.206 E19.26645
G1 X43.189 Y223.639 E19.3085
G1 X42.539 Y223.012 E19.35056
G1 X41.947 Y222.33 E19.39261
G1 X41.417 Y221.599 E19.43465
G1 X40.955 Y220.823 E19.47671
G1 X40.562 Y220.01 E19.51875
G1 X40.244 Y219.165 E19.56079
G1 X40.001 Y218.295 E19.60286
G1 X39.836 Y217.407 E19.64491
G1 X39.741 Y216.266 E19.69823
G1 X39.728 Y215.658 E19.72654
G1 X39.728 Y116.698 E24.33454
G1 X39.738 Y115.876 E24.37281
G1 X39.79 Y114.974 E24.41488
G1 X39.921 Y114.081 E24.45691
G1 X40.131 Y113.202 E24.49899
G1 X40.417 Y112.346 E24.54102
G1 X40.779 Y111.518 E24.5831
G1 X41.212 Y110.726 E24.62513
G1 X41.713 Y109.975 E24.66716
G1 X42.279 Y109.271 E24.70923
G1 X42.905 Y108.62 E24.75128
G1 X43.587 Y108.027 E24.79336
G1 X44.318 Y107.497 E24.83541
G1 X45.092 Y107.033 E24.87743
G1 X45.905 Y106.64 E24.91948
G1 X46.75 Y106.32 E24.96155
G1 X47.62 Y106.076 E25.00362
G1 X48.507 Y105.91 E25.04564
G1 X49.651 Y105.813 E25.0991
G1 X50.258 Y105.8 E25.12737
G1 X65.378 Y105.8 E25.83142
G1 X67.984 Y105.763 E25.95278
G1 X70.549 Y105.654 E26.07233
G1 X73.056 Y105.476 E26.18936
G1 X75.597 Y105.225 E26.30825
G1 X78.105 Y104.904 E26.42599
G1 X80.61 Y104.51 E26.54407
G1 X83.097 Y104.048 E26.66185
G1 X85.618 Y103.505 E26.78193
G1 X88.043 Y102.91 E26.8982
G1 X90.509 Y102.233 E27.01728
G1 X92.936 Y101.49 E27.13547
G1 X95.338 Y100.679 E27.25352
G1 X97.751 Y99.789 E27.37327
G1 X100.058 Y98.863 E27.48903
G1 X102.429 Y97.831 E27.60944
G1 X104.708 Y96.763 E27.72663
G1 X107.015 Y95.602 E27.84689
G1 X109.224 Y94.408 E27.96382
G1 X111.403 Y93.151 E28.08095
G1 X113.587 Y91.808 E28.20034
G1 X115.697 Y90.426 E28.31779
G1 X117.804 Y88.959 E28.43733
G1 X119.83 Y87.462 E28.55463
G1 X121.827 Y85.897 E28.67277
G1 X123.805 Y84.254 E28.79251
G1 X125.698 Y82.589 E28.9099
G1 X127.559 Y80.859 E29.02821
G1 X129.352 Y79.093 E29.1454
G1 X131.115 Y77.254 E29.26403
G1 X132.846 Y75.344 E29.38405
G1 X134.479 Y73.439 E29.50089
G1 X136.084 Y71.452 E29.61982
G1 X137.607 Y69.453 E29.73684
G1 X139.098 Y67.381 E29.85571
G1 X140.532 Y65.262 E29.97485
G1 X141.89 Y63.127 E30.09267
G1 X143.18 Y60.967 E30.20982
G1 X144.439 Y58.721 E30.32971
G1 X144.915 Y57.954 E30.37175
G1 X145.457 Y57.232 E30.41378
G1 X146.061 Y56.56 E30.45586
G1 X146.722 Y55.945 E30.4979
G1 X147.435 Y55.39 E30.53997
G1 X148.194 Y54.901 E30.58201
G1 X148.993 Y54.481 E30.62405
G1 X149.827 Y54.133 E30.66612
G1 X150.688 Y53.86 E30.70818
G1 X151.569 Y53.664 E30.75021
G1 X152.465 Y53.547 E30.79229
G1 X153.021 Y53.515 E30.81822
G1 X153.66 Y53.5 E30.84798
G1 X247.623 Y53.5 E35.22329
G1 X247.769 Y53.501 E35.23009
G1 X248.467 Y53.511 E35.2626
G0 F6000 X248.473 Y53.111
G1 F1200 X249.392 Y53.164 E35.30546
G1 X250.303 Y53.297 E35.34833
G1 X251.199 Y53.508 E35.39119
G1 X252.073 Y53.796 E35.43404
G1 X252.92 Y54.159 E35.47695
G1 X253.731 Y54.594 E35.5198
G1 X254.501 Y55.098 E35.56266
G1 X255.225 Y55.667 E35.60553
G1 X255.897 Y56.297 E35.64842
G1 X256.512 Y56.982 E35.69129
G1 X257.065 Y57.718 E35.73416
G1 X257.552 Y58.499 E35.77702
G1 X257.969 Y59.32 E35.81989
G1 X258.314 Y60.174 E35.86278
G1 X258.583 Y61.054 E35.90563
G1 X258.775 Y61.955 E35.94853
G1 X258.888 Y62.868 E35.99136
G1 X258.917 Y63.412 E36.01673
G1 X258.93 Y64.03 E36.04551
G1 X258.93 Y235.564 E44.03285
G1 X258.92 Y236.422 E44.07281
G1 X258.869 Y237.341 E44.11567
G1 X258.738 Y238.253 E44.15857
G1 X258.528 Y239.149 E44.20142
G1 X258.242 Y240.024 E44.24429
G1 X257.881 Y240.871 E44.28716
G1 X257.447 Y241.683 E44.33003
G1 X256.945 Y242.455 E44.37291
G1 X256.377 Y243.18 E44.4158
G1 X255.749 Y243.853 E44.45866
G1 X255.065 Y244.469 E44.50152
G1 X254.33 Y245.023 E44.54438
G1 X253.55 Y245.512 E44.58725
G1 X252.73 Y245.931 E44.63012
G1 X251.877 Y246.277 E44.67299
G1 X250.997 Y246.548 E44.71586
G1 X250.097 Y246.741 E44.75872
G1 X249.183 Y246.856 E44.80162
G1 X248.618 Y246.887 E44.82797
G1 X248 Y246.9 E44.85675
G1 X154.037 Y246.9 E49.23206
G1 X153.886 Y246.899 E49.23909
G1 X153.185 Y246.889 E49.27174
G1 X152.266 Y246.836 E49.3146
G1 X151.355 Y246.703 E49.35747
G1 X150.459 Y246.492 E49.40033
G1 X149.584 Y246.204 E49.44323
G1 X148.738 Y245.841 E49.48609
G1 X147.927 Y245.406 E49.52895
G1 X147.045 Y244.821 E49.57823
G1 X146.131 Y244.147 E49.63111
G1 X143.995 Y242.615 E49.75351
G1 X141.927 Y241.218 E49.86971
G1 X139.797 Y239.867 E49.98716
G1 X137.579 Y238.546 E50.10737
G1 X135.404 Y237.331 E50.22338
G1 X133.142 Y236.151 E50.34218
G1 X130.913 Y235.068 E50.45757
G1 X128.563 Y234.007 E50.57764
G1 X126.222 Y233.028 E50.69579
G1 X123.872 Y232.121 E50.81308
G1 X121.485 Y231.282 E50.9309
G1 X119.106 Y230.517 E51.04726
G1 X116.669 Y229.809 E51.16543
G1 X114.206 Y229.168 E51.28394
G1 X111.748 Y228.602 E51.40139
G1 X109.262 Y228.103 E51.51946
G1 X106.796 Y227.682 E51.63594
G1 X104.246 Y227.319 E51.75588
G1 X101.789 Y227.041 E51.87102
G1 X99.229 Y226.822 E51.99066
G1 X96.777 Y226.684 E52.10501
G1 X92.806 Y226.6 E52.28996
G1 X50.483 Y226.599 E54.2607
G1 X49.785 Y226.589 E54.2932
G1 X48.866 Y226.536 E54.33607
G1 X47.955 Y226.403 E54.37894
G1 X47.059 Y226.192 E54.4218
G1 X46.185 Y225.904 E54.46465
G1 X45.338 Y225.541 E54.50756
G1 X44.527 Y225.106 E54.55041
G1 X43.757 Y224.602 E54.59326
G1 X43.033 Y224.033 E54.63614
G1 X42.361 Y223.403 E54.67903
G1 X41.746 Y222.718 E54.7219
G1 X41.193 Y221.982 E54.76477
G1 X40.706 Y221.201 E54.80762
G1 X40.289 Y220.38 E54.8505
G1 X39.944 Y219.526 E54.89339
G1 X39.675 Y218.646 E54.93624
G1 X39.483 Y217.745 E54.97913
G1 X39.37 Y216.832 E55.02197
G1 X39.341 Y216.277 E55.04785
G1 X39.328 Y215.658 E55.07668
G1 X39.328 Y116.698 E59.68467
G1 X39.338 Y115.871 E59.72318
G1 X39.39 Y114.951 E59.76609
G1 X39.521 Y114.04 E59.80895
G1 X39.732 Y113.144 E59.85181
G1 X40.019 Y112.269 E59.89469
G1 X40.381 Y111.423 E59.93754
G1 X40.815 Y110.611 E59.98041
G1 X41.317 Y109.839 E60.02329
G1 X41.885 Y109.115 E60.06614
G1 X42.514 Y108.442 E60.10903
G1 X43.199 Y107.827 E60.1519
G1 X43.934 Y107.273 E60.19475
G1 X44.715 Y106.785 E60.23764
G1 X45.535 Y106.366 E60.28051
G1 X46.388 Y106.021 E60.32336
G1 X47.268 Y105.75 E60.36624
G1 X48.168 Y105.558 E60.40909
G1 X49.082 Y105.444 E60.45198
G1 X49.64 Y105.413 E60.478
G1 X50.258 Y105.4 E60.50678
G1 X65.372 Y105.4 E61.21055
G1 X67.997 Y105.363 E61.3328
G1 X70.505 Y105.256 E61.44968
G1 X73.025 Y105.078 E61.56732
G1 X75.54 Y104.829 E61.685
G1 X78.029 Y104.51 E61.80185
G1 X80.581 Y104.109 E61.92214
G1 X83.012 Y103.657 E62.03727
G1 X85.511 Y103.119 E62.1563
G1 X87.947 Y102.522 E62.27309
G1 X90.413 Y101.844 E62.39218
G1 X92.806 Y101.111 E62.50872
G1 X95.22 Y100.297 E62.62734
G1 X97.57 Y99.43 E62.74398
G1 X99.958 Y98.471 E62.8638
G1 X102.235 Y97.48 E62.97944
G1 X104.552 Y96.394 E63.09859
G1 X106.81 Y95.258 E63.21629
G1 X109.012 Y94.068 E63.33284
G1 X111.199 Y92.807 E63.45039
G1 X113.379 Y91.465 E63.56959
G1 X115.478 Y90.091 E63.68641
G1 X117.577 Y88.629 E63.80552
G1 X119.591 Y87.141 E63.92212
G1 X121.592 Y85.573 E64.04049
G1 X123.511 Y83.979 E64.15665
G1 X125.427 Y82.295 E64.27543
G1 X127.288 Y80.564 E64.39378
G1 X129.083 Y78.795 E64.51113
G1 X130.83 Y76.974 E64.62864
G1 X132.513 Y75.117 E64.74533
G1 X134.193 Y73.157 E64.86554
G1 X135.756 Y71.221 E64.9814
G1 X137.292 Y69.206 E65.09938
G1 X138.774 Y67.146 E65.21754
G1 X140.196 Y65.045 E65.33568
G1 X141.537 Y62.938 E65.45197
G1 X142.846 Y60.745 E65.57089
G1 X144.09 Y58.526 E65.68935
G1 X144.575 Y57.743 E65.73224
G1 X145.126 Y57.005 E65.77512
G1 X145.739 Y56.318 E65.818
G1 X146.409 Y55.687 E65.86085
G1 X147.131 Y55.116 E65.90371
G1 X147.9 Y54.61 E65.94658
G1 X148.71 Y54.173 E65.98943
G1 X149.555 Y53.807 E66.03231
G1 X150.429 Y53.516 E66.07521
G1 X151.324 Y53.303 E66.11805
G1 X152.235 Y53.167 E66.16094
G1 X153.009 Y53.115 E66.19706
G1 X153.333 Y53.105 E66.21215
G1 X153.66 Y53.1 E66.22738
G1 X247.623 Y53.1 E70.60269
G1 X247.775 Y53.101 E70.60977
G1 X248.473 Y53.111 E70.64227
G0 F6000 X248.479 Y52.711
G1 F1200 X249.415 Y52.765 E70.68593
G1 X250.343 Y52.897 E70.72958
G1 X251.257 Y53.109 E70.77327
G1 X252.149 Y53.398 E70.81693
G1 X253.014 Y53.761 E70.86061
G1 X253.844 Y54.197 E70.90426
G1 X254.635 Y54.702 E70.94796
G1 X255.379 Y55.273 E70.99163
G1 X256.072 Y55.905 E71.03531
G1 X256.709 Y56.593 E71.07897
G1 X257.284 Y57.334 E71.12264
G1 X257.795 Y58.12 E71.16629
G1 X258.237 Y58.948 E71.21
G1 X258.606 Y59.81 E71.25366
G1 X258.901 Y60.7 E71.29732
G1 X259.119 Y61.612 E71.34098
G1 X259.259 Y62.54 E71.38468
G1 X259.317 Y63.401 E71.42487
G1 X259.33 Y64.03 E71.45416
G1 X259.33 Y235.564 E79.4415
G1 X259.32 Y236.427 E79.48169
G1 X259.269 Y237.364 E79.52538
G1 X259.137 Y238.292 E79.56903
G1 X258.928 Y239.206 E79.61269
G1 X258.641 Y240.099 E79.65637
G1 X258.279 Y240.965 E79.70007
G1 X257.845 Y241.796 E79.74373
G1 X257.341 Y242.587 E79.7874
G1 X256.772 Y243.332 E79.83105
G1 X256.141 Y244.027 E79.87476
G1 X255.454 Y244.665 E79.91842
G1 X254.715 Y245.242 E79.96208
G1 X253.929 Y245.754 E80.00575
G1 X253.103 Y246.197 E80.0494
G1 X252.241 Y246.569 E80.09312
G1 X251.352 Y246.865 E80.13675
G1 X250.44 Y247.085 E80.18043
G1 X249.513 Y247.226 E80.22409
G1 X248.629 Y247.287 E80.26535
G1 X248 Y247.3 E80.29465
G1 X154.037 Y247.3 E84.66996
G1 X153.88 Y247.299 E84.67727
G1 X153.179 Y247.289 E84.70991
G1 X152.243 Y247.236 E84.75357
G1 X151.314 Y247.103 E84.79727
G1 X150.401 Y246.891 E84.84091
G1 X149.508 Y246.603 E84.8846
G1 X148.644 Y246.239 E84.92826
G1 X147.813 Y245.803 E84.97196
G1 X146.807 Y245.143 E85.02798
G1 X145.9 Y244.474 E85.08046
G1 X143.767 Y242.944 E85.20269
G1 X141.71 Y241.555 E85.31827
G1 X139.543 Y240.18 E85.43777
G1 X137.428 Y238.921 E85.55238
G1 X135.176 Y237.663 E85.67249
G1 X132.989 Y236.522 E85.78736
G1 X130.71 Y235.414 E85.90535
G1 X128.423 Y234.383 E86.02217
G1 X126.103 Y233.412 E86.13928
G1 X123.692 Y232.481 E86.25962
G1 X121.379 Y231.668 E86.37378
G1 X118.987 Y230.899 E86.49078
G1 X116.553 Y230.191 E86.60881
G1 X114.129 Y229.561 E86.72544
G1 X111.651 Y228.991 E86.84384
G1 X109.181 Y228.494 E86.96115
G1 X106.745 Y228.078 E87.07623
G1 X104.216 Y227.719 E87.19517
G1 X101.708 Y227.434 E87.3127
G1 X99.243 Y227.225 E87.4279
G1 X96.747 Y227.084 E87.5443
G1 X92.797 Y227 E87.72827
G1 X50.477 Y226.999 E89.69887
G1 X49.779 Y226.989 E89.73138
G1 X48.843 Y226.935 E89.77503
G1 X47.915 Y226.803 E89.81868
G1 X47.001 Y226.591 E89.86237
G1 X46.109 Y226.302 E89.90603
G1 X45.244 Y225.939 E89.94971
G1 X44.414 Y225.503 E89.99337
G1 X43.623 Y224.998 E90.03707
G1 X42.879 Y224.427 E90.08074
G1 X42.186 Y223.795 E90.12441
G1 X41.549 Y223.107 E90.16807
G1 X40.974 Y222.366 E90.21174
G1 X40.463 Y221.58 E90.2554
G1 X40.021 Y220.752 E90.2991
G1 X39.652 Y219.89 E90.34276
G1 X39.357 Y219 E90.38642
G1 X39.139 Y218.088 E90.43008
G1 X38.999 Y217.16 E90.47378
G1 X38.941 Y216.288 E90.51448
G1 X38.928 Y215.658 E90.54382
G1 X38.928 Y116.698 E95.15181
G1 X38.938 Y115.865 E95.1906
G1 X38.99 Y114.929 E95.23425
G1 X39.122 Y114 E95.27795
G1 X39.332 Y113.086 E95.32162
G1 X39.62 Y112.194 E95.36526
G1 X39.982 Y111.329 E95.40893
G1 X40.417 Y110.498 E95.4526
G1 X40.921 Y109.707 E95.49627
G1 X41.491 Y108.962 E95.53995
G1 X42.122 Y108.268 E95.58363
G1 X42.81 Y107.63 E95.62732
G1 X43.549 Y107.054 E95.67095
G1 X44.335 Y106.542 E95.71463
G1 X45.162 Y106.099 E95.75831
G1 X46.024 Y105.729 E95.80199
G1 X46.914 Y105.433 E95.84567
G1 X47.826 Y105.214 E95.88934
G1 X48.753 Y105.073 E95.933
G1 X49.629 Y105.013 E95.97389
G1 X50.258 Y105 E96.00318
G1 X65.366 Y105 E96.70668
G1 X67.974 Y104.963 E96.82813
G1 X70.495 Y104.856 E96.94562
G1 X72.99 Y104.679 E97.06209
G1 X75.49 Y104.431 E97.17907
G1 X77.983 Y104.112 E97.2961
G1 X80.476 Y103.721 E97.41361
G1 X82.966 Y103.258 E97.53154
G1 X85.429 Y102.728 E97.64885
G1 X87.825 Y102.14 E97.76373
G1 X90.295 Y101.461 E97.88301
G1 X92.698 Y100.725 E98.00004
G1 X95.09 Y99.918 E98.11759
G1 X97.43 Y99.055 E98.23372
G1 X99.786 Y98.109 E98.35194
G1 X102.084 Y97.109 E98.46863
G1 X104.381 Y96.033 E98.58675
G1 X106.605 Y94.914 E98.70267
G1 X108.844 Y93.703 E98.8212
G1 X111.011 Y92.454 E98.93767
G1 X113.156 Y91.134 E99.05495
G1 X115.253 Y89.761 E99.17166
G1 X117.316 Y88.324 E99.28873
G1 X119.352 Y86.819 E99.40662
G1 X121.335 Y85.266 E99.52391
G1 X123.275 Y83.655 E99.64133
G1 X125.154 Y82.002 E99.75786
G1 X127 Y80.285 E99.87525
G1 X128.796 Y78.516 E99.99264
G1 X130.528 Y76.711 E100.10912
G1 X132.229 Y74.833 E100.2271
G1 X133.876 Y72.912 E100.34493
G1 X135.46 Y70.951 E100.46231
G1 X136.97 Y68.97 E100.5783
G1 X138.446 Y66.917 E100.69603
G1 X139.844 Y64.852 E100.81215
G1 X141.214 Y62.699 E100.93098
G1 X142.487 Y60.566 E101.04665
G1 X143.741 Y58.33 E101.16602
G1 X144.235 Y57.532 E101.20972
G1 X144.794 Y56.78 E101.25335
G1 X145.415 Y56.077 E101.29703
G1 X146.094 Y55.43 E101.3407
G1 X146.826 Y54.843 E101.38439
G1 X147.605 Y54.321 E101.42806
G1 X148.425 Y53.867 E101.4717
G1 X149.282 Y53.484 E101.51541
G1 X150.168 Y53.176 E101.55909
