;FLAVOR:Marlin
;TIME:8817
;Filament used: 9.7604m
;Layer height: 0.28
;MINX:57.5
;MINY:108.016
;MINZ:0.28
;MAXX:218.475
;MAXY:257.984
;MAXZ:7
;Generated with Cura_SteamEngine 4.6.2
M140 S50
M105
M190 S50
M104 S200
M105
M109 S200
M82 ;absolute extrusion mode
M201 X500.00 Y500.00 Z100.00 E5000.00 ;Setup machine max acceleration
M203 X500.00 Y500.00 Z10.00 E50.00 ;Setup machine max feedrate
M204 P500.00 R1000.00 T500.00 ;Setup Print/Retract/Travel acceleration
M205 X8.00 Y8.00 Z0.40 E5.00 ;Setup Jerk
M220 S100 ;Reset Feedrate
M221 S100 ;Reset Flowrate

G28 ;Home

G92 E0 ;Reset Extruder
G1 Z2.0 F3000 ;Move Z Axis up
G1 X10.1 Y20 Z0.28 F5000.0 ;Move to start position
G1 X10.1 Y200.0 Z0.28 F1500.0 E15 ;Draw the first line
G1 X10.4 Y200.0 Z0.28 F5000.0 ;Move to side a little
G1 X10.4 Y20 Z0.28 F1500.0 E30 ;Draw the second line
G92 E0 ;Reset Extruder
G1 Z2.0 F3000 ;Move Z Axis up

G92 E0
G92 E0
G1 F2700 E-5
;LAYER_COUNT:25
;LAYER:0
M107
G0 F6000 X103.985 Y108.903 Z0.28
;TYPE:SKIRT
G1 F2700 E0
G1 F1200 X104.848 Y108.984 E0.04036
G1 X105.486 Y109.053 E0.07024
G1 X106.378 Y109.19 E0.11226
G1 X107.13 Y109.369 E0.14826
G1 X107.983 Y109.609 E0.18952
G1 X108.636 Y109.806 E0.22128
G1 X109.334 Y110.025 E0.25535
G1 X110.182 Y110.333 E0.29736
G1 X110.898 Y110.662 E0.33405
G1 X111.641 Y111.041 E0.37288
G1 X112.337 Y111.412 E0.40961
G1 X112.901 Y111.721 E0.43956
G1 X113.625 Y112.157 E0.47891
G1 X114.591 Y112.797 E0.53287
G1 X115.244 Y113.243 E0.56969
G1 X117.401 Y114.629 E0.68907
G1 X119.572 Y115.938 E0.80712
G1 X121.773 Y117.183 E0.92487
G1 X124.015 Y118.368 E1.04295
G1 X126.299 Y119.494 E1.16152
G1 X128.614 Y120.554 E1.28008
G1 X130.942 Y121.542 E1.39784
G1 X133.36 Y122.49 E1.51878
G1 X135.692 Y123.325 E1.63412
G1 X138.102 Y124.114 E1.7522
G1 X140.551 Y124.841 E1.87115
G1 X143.005 Y125.493 E1.98939
G1 X145.489 Y126.079 E2.10823
G1 X147.991 Y126.595 E2.22718
G1 X150.467 Y127.032 E2.34426
G1 X152.96 Y127.401 E2.46161
G1 X155.53 Y127.707 E2.58212
G1 X158.032 Y127.933 E2.6991
G1 X160.557 Y128.09 E2.8169
G1 X163.09 Y128.175 E2.93491
G1 X165.659 Y128.188 E3.05454
G1 X168.164 Y128.131 E3.17121
G1 X170.717 Y128.001 E3.29024
G1 X173.259 Y127.798 E3.40899
G1 X175.762 Y127.527 E3.52622
G1 X178.32 Y127.177 E3.64644
G1 X180.774 Y126.769 E3.76228
G1 X183.308 Y126.276 E3.88248
G1 X185.89 Y125.695 E4.00572
G1 X187.105 Y125.403 E4.0639
G1 X187.901 Y125.245 E4.10169
G1 X188.2 Y125.198 E4.11579
G1 X188.55 Y125.149 E4.13224
G1 X190.142 Y124.956 E4.20692
G1 X190.796 Y124.886 E4.23754
G1 X191.882 Y124.828 E4.28818
G1 X192.444 Y124.833 E4.31435
G1 X192.78 Y124.844 E4.33001
G1 X194.157 Y124.899 E4.39418
G1 X194.816 Y124.934 E4.42491
G1 X195.854 Y125.043 E4.47351
G1 X196.071 Y125.077 E4.48373
G1 X196.417 Y125.137 E4.50009
G1 X196.806 Y125.213 E4.51854
G1 X198.113 Y125.479 E4.58065
G1 X198.822 Y125.633 E4.61443
G1 X200.083 Y125.994 E4.67551
G1 X200.771 Y126.241 E4.70955
G1 X201.998 Y126.707 E4.77066
G1 X202.658 Y126.968 E4.80371
G1 X203.652 Y127.424 E4.85463
G1 X204.1 Y127.664 E4.8783
G1 X204.435 Y127.853 E4.89621
G1 X205.611 Y128.531 E4.95942
G1 X206.213 Y128.89 E4.99206
G1 X207.124 Y129.502 E5.04316
G1 X207.504 Y129.792 E5.06542
G1 X207.817 Y130.042 E5.08407
G1 X208.83 Y130.867 E5.1449
G1 X209.411 Y131.353 E5.18017
G1 X210.37 Y132.267 E5.24186
G1 X210.841 Y132.781 E5.27433
G1 X211.723 Y133.775 E5.3362
G1 X212.171 Y134.293 E5.36809
G1 X212.889 Y135.227 E5.42295
G1 X213.365 Y135.946 E5.4631
G1 X214.06 Y137.044 E5.52361
G1 X214.428 Y137.641 E5.55627
G1 X214.954 Y138.608 E5.60752
G1 X215.064 Y138.839 E5.61944
G1 X215.312 Y139.394 E5.64774
G1 X215.852 Y140.654 E5.71158
G1 X216.13 Y141.329 E5.74557
G1 X216.485 Y142.337 E5.79533
G1 X216.547 Y142.548 E5.80557
G1 X216.723 Y143.211 E5.83751
G1 X217.043 Y144.495 E5.89913
G1 X217.212 Y145.214 E5.93352
G1 X217.414 Y146.364 E5.98789
G1 X217.463 Y146.802 E6.00841
G1 X217.505 Y147.256 E6.02964
G1 X217.607 Y148.483 E6.08697
G1 X217.66 Y149.256 E6.12305
G1 X217.676 Y150.369 E6.17488
G1 X217.665 Y150.639 E6.18747
G1 X217.644 Y150.989 E6.20379
G1 X217.524 Y152.575 E6.27786
G1 X217.46 Y153.275 E6.31059
G1 X217.295 Y154.392 E6.36316
G1 X217.196 Y154.859 E6.38539
G1 X217.102 Y155.259 E6.40453
G1 X216.785 Y156.566 E6.46715
G1 X216.615 Y157.225 E6.49884
G1 X216.285 Y158.268 E6.54978
G1 X216.099 Y158.75 E6.57384
G1 X215.942 Y159.133 E6.59311
G1 X215.415 Y160.38 E6.65615
G1 X215.142 Y161.001 E6.68774
G1 X214.657 Y161.961 E6.73782
G1 X214.379 Y162.439 E6.76357
G1 X214.17 Y162.778 E6.78211
G1 X213.476 Y163.885 E6.84295
G1 X213.093 Y164.478 E6.87582
G1 X212.59 Y165.189 E6.91637
G1 X212.367 Y165.477 E6.93333
G1 X210.851 Y167.495 E7.05086
G1 X209.371 Y169.585 E7.17011
G1 X207.976 Y171.677 E7.2872
G1 X206.611 Y173.856 E7.40692
G1 X205.331 Y176.035 E7.5246
G1 X204.115 Y178.243 E7.64197
G1 X202.939 Y180.53 E7.76172
G1 X201.857 Y182.792 E7.87848
G1 X200.813 Y185.141 E7.99817
G1 X199.837 Y187.511 E8.11752
G1 X198.957 Y189.844 E8.23363
G1 X198.127 Y192.24 E8.3517
G1 X197.357 Y194.686 E8.4711
G1 X196.661 Y197.138 E8.58979
G1 X196.039 Y199.586 E8.7074
G1 X195.484 Y202.058 E8.82537
G1 X195.002 Y204.552 E8.94365
G1 X194.583 Y207.089 E9.06339
G1 X194.247 Y209.549 E9.179
G1 X193.971 Y212.122 E9.2995
G1 X193.772 Y214.637 E9.41697
G1 X193.632 Y217.165 E9.53486
G1 X193.524 Y218.577 E9.60081
G1 X193.46 Y219.276 E9.63349
G1 X193.295 Y220.392 E9.68602
G1 X193.196 Y220.859 E9.70825
G1 X193.102 Y221.259 E9.72738
G1 X192.785 Y222.566 E9.79001
G1 X192.615 Y223.225 E9.8217
G1 X192.285 Y224.268 E9.87264
G1 X192.099 Y224.75 E9.89669
G1 X191.942 Y225.133 E9.91597
G1 X191.415 Y226.38 E9.97901
G1 X191.142 Y227.001 E10.01059
G1 X190.657 Y227.961 E10.06068
G1 X190.379 Y228.439 E10.08642
G1 X190.17 Y228.778 E10.10497
G1 X189.477 Y229.884 E10.16574
G1 X189.096 Y230.474 E10.19845
G1 X188.421 Y231.4 E10.2518
G1 X188.25 Y231.609 E10.26438
G1 X188.027 Y231.872 E10.28043
G1 X186.993 Y233.051 E10.35345
G1 X186.502 Y233.595 E10.38758
G1 X185.56 Y234.512 E10.44879
G1 X185.008 Y234.982 E10.48255
G1 X183.998 Y235.813 E10.54345
G1 X183.445 Y236.255 E10.57642
G1 X182.542 Y236.899 E10.62806
G1 X182.117 Y237.165 E10.65141
G1 X181.812 Y237.348 E10.66797
G1 X180.663 Y238.017 E10.72988
G1 X180.03 Y238.376 E10.76377
G1 X179.005 Y238.884 E10.81704
G1 X178.539 Y239.079 E10.84056
G1 X178.241 Y239.196 E10.85547
G1 X176.942 Y239.697 E10.9203
G1 X176.294 Y239.936 E10.95246
G1 X175.086 Y240.298 E11.01118
G1 X174.368 Y240.463 E11.04548
G1 X173.055 Y240.738 E11.10795
G1 X172.367 Y240.873 E11.14059
G1 X171.107 Y241.04 E11.19978
G1 X170.432 Y241.084 E11.23127
G1 X169.031 Y241.148 E11.29658
G1 X168.336 Y241.171 E11.32896
G1 X167.237 Y241.149 E11.38014
G1 X167.01 Y241.132 E11.39074
G1 X166.379 Y241.07 E11.42027
G1 X165.001 Y240.911 E11.48486
G1 X164.32 Y240.824 E11.51683
G1 X163.193 Y240.615 E11.5702
G1 X162.386 Y240.418 E11.60888
G1 X159.813 Y239.823 E11.73185
G1 X157.351 Y239.327 E11.84879
G1 X154.809 Y238.891 E11.96889
G1 X152.357 Y238.54 E12.08423
G1 X149.797 Y238.247 E12.20421
G1 X147.262 Y238.03 E12.32268
G1 X144.757 Y237.886 E12.43952
G1 X142.188 Y237.812 E12.55919
G1 X139.653 Y237.81 E12.67723
G1 X137.122 Y237.88 E12.79513
G1 X134.592 Y238.022 E12.91312
G1 X132.056 Y238.236 E13.03163
G1 X129.521 Y238.522 E13.15042
G1 X127.034 Y238.874 E13.26738
G1 X124.498 Y239.307 E13.38717
G1 X122.02 Y239.802 E13.50484
G1 X119.552 Y240.368 E13.62274
G1 X117.107 Y241.002 E13.74036
G1 X114.634 Y241.72 E13.86027
G1 X112.215 Y242.496 E13.97856
G1 X109.834 Y243.335 E14.09611
G1 X107.498 Y244.232 E14.21263
G1 X105.112 Y245.227 E14.333
G1 X102.823 Y246.259 E14.44992
G1 X100.498 Y247.388 E14.57027
G1 X98.255 Y248.556 E14.68803
G1 X96.064 Y249.776 E14.8048
G1 X93.887 Y251.073 E14.9228
G1 X90.66 Y253.148 E15.10144
G1 X89.768 Y253.747 E15.15147
G1 X89.072 Y254.175 E15.18952
G1 X88.341 Y254.584 E15.22852
G1 X87.681 Y254.939 E15.26342
G1 X87.074 Y255.255 E15.29529
G1 X86.255 Y255.637 E15.33737
G1 X85.52 Y255.907 E15.37383
G1 X84.686 Y256.177 E15.41465
G1 X84.037 Y256.375 E15.44624
G1 X83.345 Y256.577 E15.47981
G1 X82.468 Y256.792 E15.52185
G1 X81.68 Y256.916 E15.559
G1 X80.873 Y257.01 E15.59683
G1 X80.162 Y257.082 E15.63011
G1 X79.427 Y257.146 E15.66446
G1 X78.525 Y257.184 E15.7065
G1 X77.792 Y257.156 E15.74066
G1 X77.015 Y257.097 E15.77694
G1 X76.152 Y257.016 E15.8173
G1 X75.514 Y256.947 E15.84718
G1 X74.622 Y256.81 E15.8892
G1 X73.868 Y256.63 E15.9253
G1 X73.005 Y256.387 E15.96705
G1 X72.359 Y256.193 E15.99846
G1 X71.662 Y255.974 E16.03248
G1 X70.814 Y255.665 E16.0745
G1 X70.102 Y255.338 E16.11098
G1 X69.36 Y254.959 E16.14978
G1 X68.667 Y254.59 E16.18634
G1 X68.104 Y254.282 E16.21622
G1 X67.331 Y253.814 E16.2583
G1 X66.709 Y253.363 E16.29407
G1 X66.023 Y252.824 E16.3347
G1 X65.481 Y252.381 E16.36729
G1 X64.911 Y251.903 E16.40193
G1 X64.245 Y251.292 E16.44402
G1 X63.708 Y250.711 E16.48086
G1 X63.19 Y250.101 E16.51812
G1 X62.712 Y249.522 E16.55308
G1 X62.275 Y248.979 E16.58554
G1 X61.74 Y248.251 E16.62761
G1 X61.322 Y247.568 E16.66489
G1 X60.908 Y246.827 E16.70442
G1 X60.566 Y246.19 E16.73808
G1 X60.247 Y245.579 E16.77018
G1 X59.865 Y244.76 E16.81226
G1 X59.585 Y244 E16.84997
G1 X59.323 Y243.186 E16.88979
G1 X59.125 Y242.537 E16.92139
G1 X58.923 Y241.845 E16.95495
G1 X58.708 Y240.968 E16.997
G1 X58.584 Y240.18 E17.03414
G1 X58.49 Y239.373 E17.07197
G1 X58.419 Y238.667 E17.10501
G1 X58.361 Y238.005 E17.13596
G1 X58.326 Y237.398 E17.16427
G1 X58.3 Y236.323 E17.21434
G1 X58.301 Y195.554 E19.11272
G1 X58.309 Y195.021 E19.13754
G1 X58.338 Y194.398 E19.16658
G1 X58.483 Y192.639 E19.24876
G1 X58.559 Y191.96 E19.28058
G1 X58.699 Y191.068 E19.32262
G1 X58.875 Y190.34 E19.3575
G1 X59.089 Y189.585 E19.39404
G1 X59.306 Y188.862 E19.42919
G1 X59.527 Y188.158 E19.46354
G1 X59.836 Y187.309 E19.50561
G1 X60.174 Y186.576 E19.5432
G1 X60.543 Y185.856 E19.58087
G1 X60.93 Y185.128 E19.61926
G1 X61.221 Y184.596 E19.6475
G1 X61.689 Y183.824 E19.68954
G1 X62.166 Y183.169 E19.72727
G1 X62.87 Y182.277 E19.78018
G1 X64.491 Y180.171 E19.90393
G1 X65.966 Y178.136 E20.02096
G1 X67.418 Y176.01 E20.14084
G1 X68.762 Y173.917 E20.25666
G1 X70.097 Y171.701 E20.37713
G1 X71.346 Y169.49 E20.49537
G1 X72.52 Y167.268 E20.61239
G1 X73.648 Y164.976 E20.73134
G1 X74.712 Y162.654 E20.85027
G1 X75.694 Y160.338 E20.96741
G1 X76.629 Y157.95 E21.08683
G1 X77.49 Y155.543 E21.20586
G1 X78.264 Y153.178 E21.32173
G1 X78.994 Y150.713 E21.44144
G1 X79.644 Y148.265 E21.55938
G1 X80.222 Y145.81 E21.67682
G1 X80.742 Y143.294 E21.79645
G1 X81.181 Y140.799 E21.91441
G1 X81.546 Y138.318 E22.03118
G1 X81.85 Y135.766 E22.15086
G1 X82.077 Y133.25 E22.26849
G1 X82.233 Y130.707 E22.38712
G1 X82.257 Y129.952 E22.4223
G1 X82.307 Y128.85 E22.47366
G1 X82.329 Y128.499 E22.49004
G1 X82.452 Y126.961 E22.56188
G1 X82.483 Y126.641 E22.57685
G1 X82.559 Y125.961 E22.60871
G1 X82.699 Y125.069 E22.65076
G1 X82.876 Y124.334 E22.68596
G1 X83.089 Y123.585 E22.72222
G1 X83.306 Y122.862 E22.75737
G1 X83.527 Y122.158 E22.79173
G1 X83.836 Y121.309 E22.8338
G1 X84.174 Y120.576 E22.87138
G1 X84.543 Y119.856 E22.90906
G1 X84.93 Y119.128 E22.94745
G1 X85.221 Y118.596 E22.97568
G1 X85.689 Y117.824 E23.01772
G1 X86.158 Y117.179 E23.05485
G1 X86.676 Y116.523 E23.09378
G1 X87.117 Y115.984 E23.1262
G1 X87.598 Y115.41 E23.16108
G1 X88.208 Y114.744 E23.20313
G1 X88.806 Y114.193 E23.24099
G1 X89.393 Y113.695 E23.27684
G1 X89.966 Y113.221 E23.31146
G1 X90.523 Y112.773 E23.34475
G1 X91.251 Y112.239 E23.38679
G1 X91.932 Y111.822 E23.42397
G1 X92.672 Y111.409 E23.46343
G1 X93.313 Y111.065 E23.49731
G1 X93.921 Y110.748 E23.52924
G1 X94.74 Y110.366 E23.57132
G1 X95.477 Y110.094 E23.6079
G1 X96.314 Y109.823 E23.64886
G1 X96.979 Y109.62 E23.68124
G1 X97.658 Y109.422 E23.71417
G1 X98.535 Y109.208 E23.75621
G1 X99.32 Y109.084 E23.79321
G1 X100.127 Y108.99 E23.83104
G1 X100.838 Y108.918 E23.86432
G1 X101.573 Y108.854 E23.89868
G1 X102.475 Y108.816 E23.94071
G1 X103.208 Y108.844 E23.97487
G1 X103.985 Y108.903 E24.01115
G0 F6000 X104.022 Y108.505
G1 F1200 X104.891 Y108.586 E24.05179
G1 X105.529 Y108.655 E24.08168
G1 X106.439 Y108.794 E24.12454
G1 X107.238 Y108.984 E24.16278
G1 X108.098 Y109.226 E24.20438
G1 X108.755 Y109.424 E24.23633
G1 X109.453 Y109.643 E24.2704
G1 X110.319 Y109.957 E24.31329
G1 X111.079 Y110.306 E24.35223
G1 X111.828 Y110.688 E24.39138
G1 X112.529 Y111.061 E24.42836
G1 X113.093 Y111.37 E24.4583
G1 X113.846 Y111.824 E24.49925
G1 X114.817 Y112.467 E24.55348
G1 X115.481 Y112.92 E24.5909
G1 X117.592 Y114.277 E24.70776
G1 X119.781 Y115.597 E24.82679
G1 X121.951 Y116.824 E24.94286
G1 X124.2 Y118.013 E25.06132
G1 X126.493 Y119.143 E25.18035
G1 X128.771 Y120.186 E25.29702
G1 X131.096 Y121.173 E25.41463
G1 X133.475 Y122.105 E25.5336
G1 X135.836 Y122.952 E25.6504
G1 X138.235 Y123.737 E25.76794
G1 X140.663 Y124.457 E25.88586
G1 X143.094 Y125.103 E26.00299
G1 X145.556 Y125.684 E26.12078
G1 X148.07 Y126.203 E26.24031
G1 X150.524 Y126.636 E26.35634
G1 X153.033 Y127.007 E26.47444
G1 X155.542 Y127.305 E26.59209
G1 X158.057 Y127.533 E26.70968
G1 X160.596 Y127.69 E26.82814
G1 X163.105 Y127.775 E26.94503
G1 X165.651 Y127.788 E27.06359
G1 X168.17 Y127.73 E27.18091
G1 X170.7 Y127.601 E27.29887
G1 X173.185 Y127.403 E27.41495
G1 X175.736 Y127.127 E27.53443
G1 X178.237 Y126.785 E27.65197
G1 X180.732 Y126.371 E27.76974
G1 X183.215 Y125.887 E27.88753
G1 X185.773 Y125.311 E28.00963
G1 X187.011 Y125.014 E28.06891
G1 X187.839 Y124.85 E28.10821
G1 X188.138 Y124.803 E28.12231
G1 X188.502 Y124.752 E28.13942
G1 X190.1 Y124.558 E28.21438
G1 X190.754 Y124.488 E28.245
G1 X191.882 Y124.428 E28.2976
G1 X192.457 Y124.433 E28.32438
G1 X192.796 Y124.444 E28.34017
G1 X194.178 Y124.5 E28.40458
G1 X194.837 Y124.535 E28.4353
G1 X195.916 Y124.648 E28.48582
G1 X196.133 Y124.682 E28.49605
G1 X196.492 Y124.744 E28.51301
G1 X196.886 Y124.821 E28.53171
G1 X198.198 Y125.089 E28.59406
G1 X198.907 Y125.243 E28.62784
G1 X200.217 Y125.617 E28.69128
G1 X200.913 Y125.867 E28.72572
G1 X202.145 Y126.335 E28.78708
G1 X202.805 Y126.596 E28.82013
G1 X203.838 Y127.07 E28.87305
G1 X204.296 Y127.315 E28.89724
G1 X204.634 Y127.506 E28.91532
G1 X205.816 Y128.188 E28.97886
G1 X206.418 Y128.547 E29.0115
G1 X207.365 Y129.183 E29.06462
G1 X208.069 Y129.731 E29.10616
G1 X209.087 Y130.56 E29.16729
G1 X209.668 Y131.046 E29.20256
G1 X210.664 Y131.996 E29.26665
G1 X211.14 Y132.515 E29.29945
G1 X212.025 Y133.513 E29.36156
G1 X212.473 Y134.031 E29.39345
G1 X213.22 Y135.002 E29.45049
G1 X213.702 Y135.732 E29.49122
G1 X214.4 Y136.834 E29.55197
G1 X214.768 Y137.431 E29.58462
G1 X215.315 Y138.436 E29.6379
G1 X215.57 Y138.983 E29.666
G1 X215.68 Y139.236 E29.67885
G1 X216.222 Y140.501 E29.74293
G1 X216.5 Y141.176 E29.77692
G1 X216.869 Y142.225 E29.8287
G1 X216.931 Y142.436 E29.83894
G1 X217.112 Y143.114 E29.87162
G1 X217.433 Y144.404 E29.93352
G1 X217.602 Y145.123 E29.96791
G1 X217.811 Y146.318 E30.0244
G1 X217.861 Y146.764 E30.0453
G1 X217.904 Y147.223 E30.06676
G1 X218.006 Y148.456 E30.12437
G1 X218.059 Y149.229 E30.16045
G1 X218.075 Y150.385 E30.21429
G1 X218.064 Y150.655 E30.22687
G1 X218.043 Y151.019 E30.24385
G1 X217.922 Y152.611 E30.31819
G1 X217.858 Y153.311 E30.35092
G1 X217.687 Y154.472 E30.40557
G1 X217.585 Y154.949 E30.42828
G1 X217.491 Y155.354 E30.44764
G1 X217.172 Y156.666 E30.51051
G1 X217.002 Y157.325 E30.5422
G1 X216.659 Y158.409 E30.59514
G1 X216.469 Y158.902 E30.61975
G1 X216.311 Y159.288 E30.63917
G1 X215.781 Y160.541 E30.70252
G1 X215.508 Y161.162 E30.7341
G1 X215.005 Y162.16 E30.78614
G1 X214.886 Y162.368 E30.7973
G1 X214.509 Y162.99 E30.83117
G1 X213.812 Y164.102 E30.89228
G1 X213.429 Y164.695 E30.92515
G1 X212.906 Y165.434 E30.96731
G1 X212.728 Y165.664 E30.98085
G1 X211.169 Y167.738 E31.10167
G1 X209.698 Y169.816 E31.22022
G1 X208.304 Y171.906 E31.3372
G1 X206.962 Y174.049 E31.45494
G1 X205.684 Y176.224 E31.5724
G1 X204.464 Y178.439 E31.69015
G1 X203.292 Y180.721 E31.80961
G1 X202.212 Y182.977 E31.92607
G1 X201.19 Y185.276 E32.04322
G1 X200.21 Y187.657 E32.16312
G1 X199.333 Y189.98 E32.27874
G1 X198.5 Y192.385 E32.39725
G1 X197.75 Y194.768 E32.51358
G1 X197.047 Y197.241 E32.63329
G1 X196.431 Y199.667 E32.74984
