;FLAVOR:Marlin
;TIME:7354
;Filament used: 7.83144m
;Layer height: 0.28
;MINX:94
;MINY:89
;MINZ:0.28
;MAXX:206
;MAXY:211
;MAXZ:4.2
;Generated with Cura_SteamEngine 4.6.2
M140 S50
M105
M190 S50
M104 S200
M105
M109 S200
M82 ;absolute extrusion mode
M201 X500.00 Y500.00 Z100.00 E5000.00 ;Setup machine max acceleration
M203 X500.00 Y500.00 Z10.00 E50.00 ;Setup machine max feedrate
M204 P500.00 R1000.00 T500.00 ;Setup Print/Retract/Travel acceleration
M205 X8.00 Y8.00 Z0.40 E5.00 ;Setup Jerk
M220 S100 ;Reset Feedrate
M221 S100 ;Reset Flowrate

G28 ;Home

G92 E0 ;Reset Extruder
G1 Z2.0 F3000 ;Move Z Axis up
G1 X10.1 Y20 Z0.28 F5000.0 ;Move to start position
G1 X10.1 Y200.0 Z0.28 F1500.0 E15 ;Draw the first line
G1 X10.4 Y200.0 Z0.28 F5000.0 ;Move to side a little
G1 X10.4 Y20 Z0.28 F1500.0 E30 ;Draw the second line
G92 E0 ;Reset Extruder
G1 Z2.0 F3000 ;Move Z Axis up

G92 E0
G92 E0
G1 F2700 E-5
;LAYER_COUNT:15
;LAYER:0
M107
G0 F6000 X195.137 Y89.811 Z0.28
;TYPE:SKIRT
G1 F2700 E0
G1 F1200 X196.039 Y89.864 E0.04207
G1 X196.932 Y89.996 E0.08411
G1 X197.81 Y90.207 E0.12615
G1 X198.666 Y90.495 E0.16821
G1 X199.493 Y90.857 E0.21025
G1 X200.285 Y91.292 E0.25232
G1 X201.036 Y91.794 E0.29438
G1 X201.739 Y92.361 E0.33644
G1 X202.389 Y92.988 E0.37849
G1 X202.981 Y93.67 E0.42054
G1 X203.511 Y94.401 E0.46259
G1 X203.973 Y95.177 E0.50464
G1 X204.366 Y95.99 E0.54669
G1 X204.684 Y96.835 E0.58873
G1 X204.927 Y97.705 E0.63079
G1 X205.092 Y98.593 E0.67285
G1 X205.187 Y99.723 E0.72565
G1 X205.2 Y100.33 E0.75392
G1 X205.2 Y199.264 E5.3607
G1 X205.19 Y200.117 E5.40042
G1 X205.139 Y201.019 E5.44249
G1 X205.008 Y201.913 E5.48456
G1 X204.799 Y202.791 E5.52659
G1 X204.513 Y203.648 E5.56866
G1 X204.152 Y204.476 E5.61072
G1 X203.72 Y205.268 E5.65273
G1 X203.219 Y206.02 E5.6948
G1 X202.653 Y206.724 E5.73687
G1 X202.028 Y207.375 E5.77889
G1 X201.347 Y207.969 E5.82097
G1 X200.616 Y208.5 E5.86304
G1 X199.842 Y208.964 E5.90506
G1 X199.029 Y209.358 E5.94713
G1 X198.185 Y209.678 E5.98916
G1 X197.315 Y209.923 E6.03124
G1 X196.428 Y210.089 E6.07326
G1 X195.277 Y210.187 E6.12705
G1 X194.67 Y210.2 E6.15532
G1 X105.707 Y210.2 E10.29781
G1 X104.877 Y210.19 E10.33646
G1 X103.976 Y210.139 E10.37848
G1 X103.082 Y210.007 E10.42056
G1 X102.204 Y209.798 E10.46259
G1 X101.347 Y209.511 E10.50467
G1 X100.52 Y209.15 E10.54669
G1 X99.727 Y208.717 E10.58876
G1 X98.976 Y208.216 E10.6308
G1 X98.272 Y207.65 E10.67286
G1 X97.621 Y207.024 E10.71492
G1 X97.028 Y206.343 E10.75696
G1 X96.498 Y205.612 E10.79901
G1 X96.034 Y204.837 E10.84107
G1 X95.64 Y204.024 E10.88314
G1 X95.32 Y203.18 E10.92517
G1 X95.076 Y202.31 E10.96724
G1 X94.91 Y201.422 E11.00931
G1 X94.813 Y200.267 E11.06328
G1 X94.8 Y199.658 E11.09164
G1 X94.8 Y100.674 E15.70075
G1 X94.81 Y99.871 E15.73814
G1 X94.862 Y98.969 E15.78021
G1 X94.994 Y98.076 E15.82225
G1 X95.204 Y97.198 E15.86428
G1 X95.491 Y96.341 E15.90637
G1 X95.853 Y95.514 E15.9484
G1 X96.286 Y94.722 E15.99044
G1 X96.788 Y93.971 E16.0325
G1 X97.355 Y93.267 E16.07459
G1 X97.981 Y92.617 E16.11661
G1 X98.662 Y92.024 E16.15866
G1 X99.394 Y91.494 E16.20074
G1 X100.169 Y91.031 E16.24278
G1 X100.982 Y90.638 E16.28482
G1 X101.827 Y90.318 E16.3269
G1 X102.696 Y90.075 E16.36891
G1 X103.584 Y89.909 E16.41098
G1 X104.723 Y89.813 E16.4642
G1 X105.33 Y89.8 E16.49247
G1 X194.293 Y89.8 E20.63496
G1 X194.439 Y89.801 E20.64176
G1 X195.137 Y89.811 E20.67427
G0 F6000 X195.143 Y89.411
G1 F1200 X196.062 Y89.464 E20.71713
G1 X196.973 Y89.597 E20.76
G1 X197.869 Y89.808 E20.80286
G1 X198.743 Y90.096 E20.84571
G1 X199.59 Y90.459 E20.88862
G1 X200.401 Y90.894 E20.93148
G1 X201.171 Y91.398 E20.97433
G1 X201.895 Y91.967 E21.01721
G1 X202.567 Y92.597 E21.0601
G1 X203.182 Y93.282 E21.10296
G1 X203.735 Y94.018 E21.14583
G1 X204.222 Y94.799 E21.18869
G1 X204.639 Y95.62 E21.23157
G1 X204.984 Y96.474 E21.27445
G1 X205.253 Y97.354 E21.3173
G1 X205.445 Y98.255 E21.3602
G1 X205.558 Y99.168 E21.40304
G1 X205.587 Y99.712 E21.4284
G1 X205.6 Y100.33 E21.45719
G1 X205.6 Y199.264 E26.06397
G1 X205.59 Y200.122 E26.10392
G1 X205.539 Y201.041 E26.14678
G1 X205.408 Y201.953 E26.18968
G1 X205.198 Y202.849 E26.23253
G1 X204.912 Y203.724 E26.2754
G1 X204.551 Y204.571 E26.31827
G1 X204.117 Y205.383 E26.36114
G1 X203.615 Y206.155 E26.40402
G1 X203.047 Y206.88 E26.44691
G1 X202.419 Y207.553 E26.48977
G1 X201.735 Y208.169 E26.53263
G1 X201 Y208.723 E26.57549
G1 X200.22 Y209.212 E26.61836
G1 X199.4 Y209.631 E26.66124
G1 X198.547 Y209.977 E26.7041
G1 X197.667 Y210.248 E26.74698
G1 X196.767 Y210.441 E26.78984
G1 X195.853 Y210.556 E26.83273
G1 X195.288 Y210.587 E26.85908
G1 X194.67 Y210.6 E26.88786
G1 X105.707 Y210.6 E31.03035
G1 X104.872 Y210.59 E31.06924
G1 X103.953 Y210.538 E31.1121
G1 X103.042 Y210.407 E31.15495
G1 X102.146 Y210.197 E31.19781
G1 X101.271 Y209.91 E31.24068
G1 X100.424 Y209.548 E31.28358
G1 X99.612 Y209.114 E31.32645
G1 X98.841 Y208.612 E31.36929
G1 X98.116 Y208.044 E31.41217
G1 X97.443 Y207.415 E31.45507
G1 X96.828 Y206.731 E31.4979
G1 X96.274 Y205.996 E31.54076
G1 X95.786 Y205.215 E31.58364
G1 X95.367 Y204.395 E31.62652
G1 X95.021 Y203.542 E31.66938
G1 X94.751 Y202.662 E31.71224
G1 X94.558 Y201.761 E31.75515
G1 X94.444 Y200.848 E31.79799
G1 X94.413 Y200.277 E31.82462
G1 X94.4 Y199.658 E31.85345
G1 X94.4 Y100.674 E36.46256
G1 X94.41 Y99.866 E36.50018
G1 X94.462 Y98.946 E36.54309
G1 X94.594 Y98.035 E36.58595
G1 X94.805 Y97.139 E36.62882
G1 X95.092 Y96.264 E36.6717
G1 X95.455 Y95.418 E36.71456
G1 X95.889 Y94.606 E36.75744
G1 X96.392 Y93.835 E36.8003
G1 X96.961 Y93.111 E36.84318
G1 X97.589 Y92.439 E36.88601
G1 X98.274 Y91.823 E36.9289
G1 X99.01 Y91.27 E36.97177
G1 X99.791 Y90.782 E37.01465
G1 X100.611 Y90.364 E37.05751
G1 X101.465 Y90.019 E37.1004
G1 X102.345 Y89.749 E37.14326
G1 X103.245 Y89.557 E37.18611
G1 X104.159 Y89.443 E37.229
G1 X104.712 Y89.413 E37.25479
G1 X105.33 Y89.4 E37.28357
G1 X194.293 Y89.4 E41.42606
G1 X194.445 Y89.401 E41.43314
G1 X195.143 Y89.411 E41.46564
G0 F6000 X195.149 Y89.011
G1 F1200 X196.085 Y89.065 E41.5093
G1 X197.013 Y89.197 E41.55295
G1 X197.927 Y89.409 E41.59664
G1 X198.819 Y89.698 E41.6403
G1 X199.684 Y90.061 E41.68398
G1 X200.514 Y90.497 E41.72763
G1 X201.305 Y91.002 E41.77133
G1 X202.049 Y91.573 E41.815
G1 X202.742 Y92.205 E41.85868
G1 X203.379 Y92.893 E41.90234
G1 X203.954 Y93.634 E41.94601
G1 X204.465 Y94.42 E41.98966
G1 X204.907 Y95.248 E42.03337
G1 X205.276 Y96.11 E42.07703
G1 X205.571 Y97 E42.12069
G1 X205.789 Y97.912 E42.16435
G1 X205.929 Y98.84 E42.20805
G1 X205.987 Y99.701 E42.24824
G1 X206 Y100.33 E42.27753
G1 X206 Y199.264 E46.88431
G1 X205.99 Y200.127 E46.9245
G1 X205.939 Y201.064 E46.96819
G1 X205.807 Y201.992 E47.01184
G1 X205.598 Y202.906 E47.0555
G1 X205.311 Y203.799 E47.09918
G1 X204.949 Y204.665 E47.14288
G1 X204.515 Y205.496 E47.18654
G1 X204.011 Y206.287 E47.23021
G1 X203.442 Y207.032 E47.27386
G1 X202.811 Y207.727 E47.31757
G1 X202.124 Y208.365 E47.36123
G1 X201.385 Y208.942 E47.40489
G1 X200.599 Y209.454 E47.44856
G1 X199.773 Y209.897 E47.49221
G1 X198.911 Y210.269 E47.53593
G1 X198.022 Y210.565 E47.57956
G1 X197.11 Y210.785 E47.62324
G1 X196.183 Y210.926 E47.6669
G1 X195.299 Y210.987 E47.70816
G1 X194.67 Y211 E47.73746
G1 X105.707 Y211 E51.87995
G1 X104.867 Y210.99 E51.91906
G1 X103.931 Y210.938 E51.96272
G1 X103.002 Y210.806 E52.00641
G1 X102.088 Y210.596 E52.05008
G1 X101.195 Y210.309 E52.09375
G1 X100.33 Y209.946 E52.13743
G1 X99.499 Y209.512 E52.18109
G1 X98.708 Y209.008 E52.22476
G1 X97.963 Y208.438 E52.26844
G1 X97.269 Y207.807 E52.31212
G1 X96.632 Y207.12 E52.35574
G1 X96.055 Y206.38 E52.39944
G1 X95.543 Y205.594 E52.44312
G1 X95.1 Y204.767 E52.4868
G1 X94.729 Y203.906 E52.53046
G1 X94.433 Y203.016 E52.57413
G1 X94.214 Y202.104 E52.6178
G1 X94.073 Y201.177 E52.66147
G1 X94.013 Y200.288 E52.70296
G1 X94 Y199.658 E52.7323
G1 X94 Y100.674 E57.34141
G1 X94.01 Y99.86 E57.37931
G1 X94.063 Y98.924 E57.42297
G1 X94.195 Y97.995 E57.46666
G1 X94.406 Y97.081 E57.51034
G1 X94.694 Y96.189 E57.55399
G1 X95.057 Y95.324 E57.59767
G1 X95.492 Y94.493 E57.64134
G1 X95.996 Y93.703 E57.68498
G1 X96.566 Y92.958 E57.72866
G1 X97.198 Y92.264 E57.77236
G1 X97.886 Y91.627 E57.81602
G1 X98.626 Y91.051 E57.85969
G1 X99.412 Y90.539 E57.90337
G1 X100.239 Y90.097 E57.94703
G1 X101.101 Y89.727 E57.99071
G1 X101.991 Y89.431 E58.03438
G1 X102.903 Y89.213 E58.07805
G1 X103.83 Y89.072 E58.12171
G1 X104.701 Y89.013 E58.16236
G1 X105.33 Y89 E58.19165
G1 X194.293 Y89 E62.33414
G1 X194.451 Y89.001 E62.3415
G1 X195.149 Y89.011 E62.37401
G1 F2700 E57.37401
;MESH:test_stand_connectorplate.stl
G0 F6000 X186.096 Y108.41
G0 X186.929 Y107.204
G0 X187.693 Y108.586
G0 X187.954 Y109.273
G0 X188.042 Y110
G0 X187.954 Y110.727
G0 X187.693 Y111.414
G0 X187.277 Y112.018
G0 X186.727 Y112.504
G0 X186.202 Y112.779
G0 X184.614 Y113.181
;TYPE:WALL-INNER
G1 F2700 E62.37401
G1 F1200 X185.386 Y113.181 E62.40995
G1 X186.136 Y112.996 E62.44592
G1 X186.82 Y112.638 E62.48187
G1 X187.399 Y112.125 E62.51789
G1 X187.837 Y111.489 E62.55385
G1 X188.111 Y110.766 E62.58985
G1 X188.204 Y110 E62.62578
G1 X188.111 Y109.234 E62.66171
G1 X187.837 Y108.511 E62.69772
G1 X187.399 Y107.875 E62.73367
G1 X186.82 Y107.362 E62.7697
G1 X186.136 Y107.004 E62.80564
G1 X185.386 Y106.819 E62.84161
G1 X184.614 Y106.819 E62.87756
G1 X183.864 Y107.004 E62.91353
G1 X183.18 Y107.362 E62.94948
G1 X182.601 Y107.875 E62.9855
G1 X182.163 Y108.511 E63.02146
G1 X181.889 Y109.234 E63.05746
G1 X181.796 Y110 E63.09339
G1 X181.889 Y110.766 E63.12932
G1 X182.163 Y111.489 E63.16532
G1 X182.601 Y112.125 E63.20128
G1 X183.18 Y112.638 E63.2373
G1 X183.864 Y112.996 E63.27325
G1 X184.614 Y113.181 E63.30922
G0 F6000 X184.663 Y112.781
;TYPE:WALL-OUTER
G1 F1200 X185.337 Y112.781 E63.34061
G1 X185.993 Y112.619 E63.37207
G1 X186.591 Y112.306 E63.4035
G1 X187.097 Y111.858 E63.43497
G1 X187.48 Y111.302 E63.46641
G1 X187.72 Y110.67 E63.49788
G1 X187.801 Y110 E63.52931
G1 X187.72 Y109.33 E63.56073
G1 X187.48 Y108.698 E63.59221
G1 X187.097 Y108.142 E63.62365
G1 X186.591 Y107.694 E63.65512
G1 X185.993 Y107.381 E63.68655
G1 X185.337 Y107.219 E63.71801
G1 X184.663 Y107.219 E63.7494
G1 X184.007 Y107.381 E63.78086
G1 X183.409 Y107.694 E63.81229
G1 X182.903 Y108.142 E63.84376
G1 X182.52 Y108.698 E63.8752
G1 X182.28 Y109.33 E63.90668
G1 X182.199 Y110 E63.9381
G1 X182.28 Y110.67 E63.96953
G1 X182.52 Y111.302 E64.00101
G1 X182.903 Y111.858 E64.03244
G1 X183.409 Y112.306 E64.06391
G1 X184.007 Y112.619 E64.09534
G1 X184.663 Y112.781 E64.12681
G0 F6000 X184.61 Y113.217
G1 F2700 E59.12681
G0 F6000 X184.686 Y113.371
G0 X184.767 Y111.917
G0 X184.839 Y127.679
G0 X184.686 Y126.225
G0 X183.614 Y126.99
G0 X183.172 Y127.38
G0 X182.838 Y127.865
G0 X182.628 Y128.416
G0 X182.558 Y129
G0 X182.628 Y129.584
G0 X182.838 Y130.135
G0 X183.172 Y130.62
G0 X183.529 Y130.935
G0 X184.686 Y131.585
;TYPE:WALL-INNER
G1 F2700 E64.12681
G1 F1200 X185.314 Y131.585 E64.15605
G1 X185.923 Y131.435 E64.18525
G1 X186.479 Y131.144 E64.21447
G1 X186.95 Y130.727 E64.24377
G1 X187.306 Y130.21 E64.273
G1 X187.529 Y129.623 E64.30223
G1 X187.604 Y129 E64.33145
G1 X187.529 Y128.377 E64.36067
G1 X187.306 Y127.79 E64.38991
G1 X186.95 Y127.273 E64.41914
G1 X186.479 Y126.856 E64.44843
G1 X185.923 Y126.565 E64.47765
G1 X185.314 Y126.415 E64.50686
G1 X184.686 Y126.415 E64.5361
G1 X184.077 Y126.565 E64.56531
G1 X183.521 Y126.856 E64.59453
G1 X183.05 Y127.273 E64.62382
G1 X182.694 Y127.79 E64.65305
G1 X182.471 Y128.377 E64.68229
G1 X182.396 Y129 E64.71151
G1 X182.471 Y129.623 E64.74073
G1 X182.694 Y130.21 E64.76997
G1 X183.05 Y130.727 E64.79919
G1 X183.521 Y131.144 E64.82849
G1 X184.077 Y131.435 E64.85771
G1 X184.686 Y131.585 E64.88691
G0 F6000 X184.735 Y131.185
;TYPE:WALL-OUTER
G1 F1200 X185.265 Y131.185 E64.91159
G1 X185.78 Y131.058 E64.93629
G1 X186.25 Y130.812 E64.96099
G1 X186.648 Y130.46 E64.98573
G1 X186.949 Y130.023 E65.01044
G1 X187.138 Y129.527 E65.03516
G1 X187.201 Y129 E65.05987
G1 X187.138 Y128.473 E65.08459
G1 X186.949 Y127.977 E65.1093
G1 X186.648 Y127.54 E65.13401
G1 X186.25 Y127.188 E65.15875
G1 X185.78 Y126.942 E65.18345
G1 X185.265 Y126.815 E65.20815
G1 X184.735 Y126.815 E65.23283
G1 X184.22 Y126.942 E65.25753
G1 X183.75 Y127.188 E65.28223
G1 X183.352 Y127.54 E65.30697
G1 X183.051 Y127.977 E65.33168
G1 X182.862 Y128.473 E65.3564
G1 X182.799 Y129 E65.38111
G1 X182.862 Y129.527 E65.40582
G1 X183.051 Y130.023 E65.43054
G1 X183.352 Y130.46 E65.45525
G1 X183.75 Y130.812 E65.47999
G1 X184.22 Y131.058 E65.50469
G1 X184.735 Y131.185 E65.52939
G0 F6000 X184.682 Y131.621
G1 F2700 E60.52939
G0 F6000 X184.663 Y131.776
G0 X184.839 Y130.321
G0 X184.789 Y169.61
G0 X184.526 Y169.756
G0 X184.526 Y172.244
G0 X184.786 Y172.387
G0 X184.767 Y188.083
G0 X184.59 Y186.628
G0 X183.273 Y187.496
G0 X182.723 Y187.982
G0 X182.307 Y188.586
G0 X182.046 Y189.273
G0 X181.958 Y190
G0 X182.046 Y190.727
G0 X182.307 Y191.414
G0 X182.643 Y191.902
G0 X183.864 Y192.996
;TYPE:WALL-INNER
G1 F2700 E65.52939
G1 F1200 X184.614 Y193.181 E65.56536
G1 X185.386 Y193.181 E65.60131
G1 X186.136 Y192.996 E65.63728
G1 X186.82 Y192.638 E65.67323
G1 X187.399 Y192.125 E65.70925
G1 X187.837 Y191.489 E65.7452
G1 X188.111 Y190.766 E65.78121
G1 X188.204 Y190 E65.81714
G1 X188.111 Y189.234 E65.85307
G1 X187.837 Y188.511 E65.88907
G1 X187.399 Y187.875 E65.92503
G1 X186.82 Y187.362 E65.96105
G1 X186.136 Y187.004 E65.997
G1 X185.386 Y186.819 E66.03297
G1 X184.614 Y186.819 E66.06891
G1 X183.864 Y187.004 E66.10488
G1 X183.18 Y187.362 E66.14083
G1 X182.601 Y187.875 E66.17685
G1 X182.163 Y188.511 E66.21281
G1 X181.889 Y189.234 E66.24881
G1 X181.796 Y190 E66.28474
G1 X181.889 Y190.766 E66.32067
G1 X182.163 Y191.489 E66.35668
G1 X182.601 Y192.125 E66.39264
G1 X183.18 Y192.638 E66.42866
G1 X183.864 Y192.996 E66.4646
G0 F6000 X184.007 Y192.619
;TYPE:WALL-OUTER
G1 F1200 X184.663 Y192.781 E66.49607
G1 X185.337 Y192.781 E66.52745
G1 X185.993 Y192.619 E66.55892
G1 X186.591 Y192.306 E66.59035
G1 X187.097 Y191.858 E66.62181
G1 X187.48 Y191.302 E66.65325
G1 X187.72 Y190.67 E66.68473
G1 X187.801 Y190 E66.71616
G1 X187.72 Y189.33 E66.74758
G1 X187.48 Y188.698 E66.77906
G1 X187.097 Y188.142 E66.8105
G1 X186.591 Y187.694 E66.84197
G1 X185.993 Y187.381 E66.8734
G1 X185.337 Y187.219 E66.90486
G1 X184.663 Y187.219 E66.93625
G1 X184.007 Y187.381 E66.96771
G1 X183.409 Y187.694 E66.99914
G1 X182.903 Y188.142 E67.03061
G1 X182.52 Y188.698 E67.06204
G1 X182.28 Y189.33 E67.09352
G1 X182.199 Y190 E67.12495
G1 X182.28 Y190.67 E67.15637
G1 X182.52 Y191.302 E67.18785
G1 X182.903 Y191.858 E67.21929
G1 X183.409 Y192.306 E67.25076
G1 X184.007 Y192.619 E67.28219
G0 F6000 X183.852 Y193.03
G1 F2700 E62.28219
G0 F6000 X182.723 Y192.018
G0 X182.307 Y191.414
G0 X182.046 Y190.727
G0 X181.958 Y190
G0 X182.046 Y189.273
G0 X182.307 Y188.586
G0 X182.723 Y187.982
G0 X183.034 Y187.707
G0 X184.59 Y186.628
G0 X184.767 Y188.083
G0 X184.839 Y172.321
G0 X184.663 Y173.776
G0 X184.077 Y173.435
;TYPE:WALL-INNER
G1 F2700 E67.28219
G1 F1200 X184.686 Y173.585 E67.31139
G1 X185.314 Y173.585 E67.34064
G1 X185.923 Y173.435 E67.36984
G1 X186.479 Y173.144 E67.39906
G1 X186.95 Y172.727 E67.42836
G1 X187.306 Y172.21 E67.45758
G1 X187.529 Y171.623 E67.48682
G1 X187.604 Y171 E67.51604
G1 X187.529 Y170.377 E67.54526
G1 X187.306 Y169.79 E67.5745
G1 X186.95 Y169.273 E67.60373
G1 X186.479 Y168.856 E67.63302
G1 X185.923 Y168.565 E67.66224
G1 X185.314 Y168.415 E67.69145
G1 X184.686 Y168.415 E67.72069
G1 X184.077 Y168.565 E67.7499
G1 X183.521 Y168.856 E67.77912
G1 X183.05 Y169.273 E67.80841
G1 X182.694 Y169.79 E67.83764
G1 X182.471 Y170.377 E67.86688
G1 X182.396 Y171 E67.8961
G1 X182.471 Y171.623 E67.92531
G1 X182.694 Y172.21 E67.95455
G1 X183.05 Y172.727 E67.98378
G1 X183.521 Y173.144 E68.01308
G1 X184.077 Y173.435 E68.0423
G0 F6000 X184.22 Y173.058
;TYPE:WALL-OUTER
G1 F1200 X184.735 Y173.185 E68.067
G1 X185.265 Y173.185 E68.09167
G1 X185.78 Y173.058 E68.11637
G1 X186.25 Y172.812 E68.14108
G1 X186.648 Y172.46 E68.16582
G1 X186.949 Y172.023 E68.19052
G1 X187.138 Y171.527 E68.21524
G1 X187.201 Y171 E68.23995
G1 X187.138 Y170.473 E68.26467
G1 X186.949 Y169.977 E68.28938
G1 X186.648 Y169.54 E68.31409
